!!!COM: Haydn, Franz Joseph
!!!OPR: Symphony in B-flat Major
!!!OTL: Adagio
!!!OMV: 2
!!!SCT: H I:102
!!!SCA: Thematisch-bibliographisches Werkevererzeichnis (A. van Hoboken)
!!!YOR: Dover Edition; reprint of Eulenburg Edition
!!!EED: Frances Bennion
!!!ENC: Frances Bennion
!!!CDT: 1732/3/31/-1809/5/31/
!!!OCY: Österreich
!!!YEC: Copyright (c) 1994, 2000 Center for Computer Assisted Research in the Humanities
!!!YEM: Rights to all derivative editions reserved.
!!!YEM: Refer to licensing agreement for further details.
!!!YEN: United States of America
**kern	**dynam	**kern	**dynam	**kern	**dynam	**kern	**dynam	**kern	**dynam	**kern	**dynam	**kern	**dynam	**kern	**dynam	**kern	**dynam	**kern	**dynam	**kern	**dynam
*I:Flauto 1       (Flauto 2 tacet)	*I:Flauto 1       (Flauto 2 tacet)	*I:Solo - Violoncello	*I:Solo - Violoncello	*I:Bassi continui	*I:Bassi continui	*I:Oboe 1, 2	*I:Oboe 1, 2	*I:Fagotto 1, 2	*I:Fagotto 1, 2	*I:Corno 1, 2 in F	*I:Corno 1, 2 in F	*I:Tromba 1, 2 in C	*I:Tromba 1, 2 in C	*I:Timpani in C, F	*I:Timpani in C, F	*I:Violino I	*I:Violino I	*I:Violino II	*I:Violino II	*I:Viola	*I:Viola
*clefG2	*	*clefF4	*	*clefF4	*	*clefG2	*	*clefF4	*	*clefG2	*	*clefG2	*	*clefF4	*	*clefG2	*	*clefG2	*	*clefC3	*
*k[b-]	*	*k[b-]	*	*k[b-]	*	*k[b-]	*	*k[b-]	*	*k[]	*	*k[]	*	*k[]	*	*k[b-]	*	*k[b-]	*	*k[b-]	*
*F:	*	*F:	*	*F:	*	*F:	*	*F:	*	*F:	*	*F:	*	*F:	*	*F:	*	*F:	*	*F:	*
*M3/4	*	*M3/4	*	*M3/4	*	*M3/4	*	*M3/4	*	*M3/4	*	*M3/4	*	*M3/4	*	*M3/4	*	*M3/4	*	*M3/4	*
! Adagio	!	!	!	!	!	!	!	!	!	!	!	!	!	!	!	!	!	! Adagio	!	!	!
=1-	=1-	=1-	=1-	=1-	=1-	=1-	=1-	=1-	=1-	=1-	=1-	=1-	=1-	=1-	=1-	=1-	=1-	=1-	=1-	=1-	=1-
*	*	*	*	*	*	*^	*	*^	*	*	*	*	*	*	*	*	*	*	*	*	*
!	!	!	!	!	!	!	!	!	!	!	!	! con sordino	!	! con sordino	!	!	!	!	!	!	!	!	!
2.r	.	8F'\	p	8F'\	p	2.r	2.r	.	2.r	2.r	.	2.r	.	2.r	.	2.r	.	(8f/L	p	8A'/	p	8c'\	p
!	!	!	!	!	!	!	!	!	!	!	!	!	!	!	!	!	!	! 32gP/LLL	!	!	!	!	!
!	!	!	!	!	!	!	!	!	!	!	!	!	!	!	!	!	!	! 32fP/	!	!	!	!	!
!	!	!	!	!	!	!	!	!	!	!	!	!	!	!	!	!	!	! 32eP/JJJ	!	!	!	!	!
.	.	8r	.	8r	.	.	.	.	.	.	.	.	.	.	.	.	.	16.fp/L)	.	8r	.	8r	.
.	.	.	.	.	.	.	.	.	.	.	.	.	.	.	.	.	.	32a/JJk	.	.	.	.	.
.	.	8F'\	.	8F'\	.	.	.	.	.	.	.	.	.	.	.	.	.	(8..cc\L	.	8A'/	.	8c'\	.
.	.	8r	.	8r	.	.	.	.	.	.	.	.	.	.	.	.	.	.	.	8r	.	8r	.
.	.	.	.	.	.	.	.	.	.	.	.	.	.	.	.	.	.	32a\Jkk)	.	.	.	.	.
.	.	8F'\	.	8F'\	.	.	.	.	.	.	.	.	.	.	.	.	.	(8..dd\L	.	8f'/	.	8An'/	.
.	.	8r	.	8r	.	.	.	.	.	.	.	.	.	.	.	.	.	.	.	8r	.	8r	.
.	.	.	.	.	.	.	.	.	.	.	.	.	.	.	.	.	.	32bn\Jkk)	.	.	.	.	.
=2	=2	=2	=2	=2	=2	=2	=2	=2	=2	=2	=2	=2	=2	=2	=2	=2	=2	=2	=2	=2	=2	=2	=2
*	*	*	*	*	*	*	*	*	*	*	*	*^	*	*^	*	*	*	*	*	*	*	*	*
2.r	.	[4E\	.	(2E\	.	2.r	2.r	.	2.r	2.r	.	2.r	2.r	.	2.r	2.r	.	2.r	.	(24cc\LL	.	2.c/	.	(2G/	.
!	!	!	!	!	!	!	!	!	!	!	!	!	!	!	!	!	!	!	!	! 32ddP/LLL	!	!	!	!	!
!	!	!	!	!	!	!	!	!	!	!	!	!	!	!	!	!	!	!	!	! 32ccP/	!	!	!	!	!
!	!	!	!	!	!	!	!	!	!	!	!	!	!	!	!	!	!	!	!	! 32bP/JJJ	!	!	!	!	!
.	.	.	.	.	.	.	.	.	.	.	.	.	.	.	.	.	.	.	.	24ccp\	.	.	.	.	.
.	.	.	.	.	.	.	.	.	.	.	.	.	.	.	.	.	.	.	.	24ee\)	.	.	.	.	.
.	.	.	.	.	.	.	.	.	.	.	.	.	.	.	.	.	.	.	.	(24gg\	.	.	.	.	.
.	.	.	.	.	.	.	.	.	.	.	.	.	.	.	.	.	.	.	.	24ee\	.	.	.	.	.
.	.	.	.	.	.	.	.	.	.	.	.	.	.	.	.	.	.	.	.	24cc\JJ)	.	.	.	.	.
.	.	(24E\LL]	.	.	.	.	.	.	.	.	.	.	.	.	.	.	.	.	.	(4b-\	.	.	.	.	.
.	.	24G\	.	.	.	.	.	.	.	.	.	.	.	.	.	.	.	.	.	.	.	.	.	.	.
.	.	24B-\)	.	.	.	.	.	.	.	.	.	.	.	.	.	.	.	.	.	.	.	.	.	.	.
.	.	(24d\	.	.	.	.	.	.	.	.	.	.	.	.	.	.	.	.	.	.	.	.	.	.	.
.	.	24B-\	.	.	.	.	.	.	.	.	.	.	.	.	.	.	.	.	.	.	.	.	.	.	.
.	.	24G\JJ)	.	.	.	.	.	.	.	.	.	.	.	.	.	.	.	.	.	.	.	.	.	.	.
.	.	(24F\LL	.	4F\)	.	.	.	.	.	.	.	.	.	.	.	.	.	.	.	4a/)	.	.	.	4A/)	.
.	.	24A\	.	.	.	.	.	.	.	.	.	.	.	.	.	.	.	.	.	.	.	.	.	.	.
.	.	24d\)	.	.	.	.	.	.	.	.	.	.	.	.	.	.	.	.	.	.	.	.	.	.	.
.	.	(24c\	.	.	.	.	.	.	.	.	.	.	.	.	.	.	.	.	.	.	.	.	.	.	.
.	.	24A\	.	.	.	.	.	.	.	.	.	.	.	.	.	.	.	.	.	.	.	.	.	.	.
.	.	24F\JJ)	.	.	.	.	.	.	.	.	.	.	.	.	.	.	.	.	.	.	.	.	.	.	.
=3	=3	=3	=3	=3	=3	=3	=3	=3	=3	=3	=3	=3	=3	=3	=3	=3	=3	=3	=3	=3	=3	=3	=3	=3	=3
!	!	! In Pleyel, the cello part is like the Dover bassi part in m.3-8,12-17,19-42,etc.	!	! staccato	!	!	!	!	!	!	!	!	!	!	!	!	!	!	!	!	!	!	!	! staccato	!
!	!	! staccato	!	!	!	!	!	!	!	!	!	!	!	!	!	!	!	!	!	!	!	!	!	!	!
2.r	.	4B-'\	.	4BB-'/	.	2.r	2.r	.	2.r	2.r	.	2.r	2.r	.	2.r	2.r	.	2.r	.	(24g\LL	.	8d/	.	4d'\	.
!	!	!	!	!	!	!	!	!	!	!	!	!	!	!	!	!	!	!	!	! 32aP/LLL	!	!	!	!	!
!	!	!	!	!	!	!	!	!	!	!	!	!	!	!	!	!	!	!	!	! 32gP/	!	!	!	!	!
!	!	!	!	!	!	!	!	!	!	!	!	!	!	!	!	!	!	!	!	! 32f#P/JJJ	!	!	!	!	!
.	.	.	.	.	.	.	.	.	.	.	.	.	.	.	.	.	.	.	.	24gp\	.	.	.	.	.
.	.	.	.	.	.	.	.	.	.	.	.	.	.	.	.	.	.	.	.	24ee-\)	.	.	.	.	.
.	.	.	.	.	.	.	.	.	.	.	.	.	.	.	.	.	.	.	.	(24dd\	.	8r	.	.	.
.	.	.	.	.	.	.	.	.	.	.	.	.	.	.	.	.	.	.	.	24b-\	.	.	.	.	.
.	.	.	.	.	.	.	.	.	.	.	.	.	.	.	.	.	.	.	.	24g\JJ)	.	.	.	.	.
.	.	4c'\	.	4C'/	.	.	.	.	.	.	.	.	.	.	.	.	.	.	.	(24f/LL	.	8A/	.	4c'\	.
.	.	.	.	.	.	.	.	.	.	.	.	.	.	.	.	.	.	.	.	24c/	.	.	.	.	.
.	.	.	.	.	.	.	.	.	.	.	.	.	.	.	.	.	.	.	.	24f/J)	.	.	.	.	.
.	.	.	.	.	.	.	.	.	.	.	.	.	.	.	.	.	.	.	.	[8cc/J	.	8r	.	.	.
.	.	4C'/	.	4C'/	.	.	.	.	.	.	.	.	.	.	.	.	.	.	.	(24cc/LL]	.	8B-/	.	4E'/	.
.	.	.	.	.	.	.	.	.	.	.	.	.	.	.	.	.	.	.	.	24b-/	.	.	.	.	.
.	.	.	.	.	.	.	.	.	.	.	.	.	.	.	.	.	.	.	.	24dd/)	.	.	.	.	.
.	.	.	.	.	.	.	.	.	.	.	.	.	.	.	.	.	.	.	.	(24b-/	.	8r	.	.	.
.	.	.	.	.	.	.	.	.	.	.	.	.	.	.	.	.	.	.	.	24g/	.	.	.	.	.
.	.	.	.	.	.	.	.	.	.	.	.	.	.	.	.	.	.	.	.	24en/JJ)	.	.	.	.	.
=4	=4	=4	=4	=4	=4	=4	=4	=4	=4	=4	=4	=4	=4	=4	=4	=4	=4	=4	=4	=4	=4	=4	=4	=4	=4
2.r	.	4FF/	.	4.FF/	.	2.r	2.r	.	4r	2.r	.	2.r	2.r	.	2.r	2.r	.	2.r	.	(4g/	.	(4B-/	.	(4E/	.
.	.	8r	.	.	.	.	.	.	8r	.	.	.	.	.	.	.	.	.	.	8f/)	.	8A/)	.	8F/)	.
!	!	!	!	!	!	!	!	!	! Solo	!	!	!	!	!	!	!	!	!	!	!	!	!	!	!	!
.	.	(24A\LL	.	(8F\L	.	.	.	.	(8f'/L	.	p	.	.	.	.	.	.	.	.	8r	.	(8A/L	.	(8F'/L	.
.	.	24F\	.	.	.	.	.	.	.	.	.	.	.	.	.	.	.	.	.	.	.	.	.	.	.
.	.	24A\JJ)	.	.	.	.	.	.	.	.	.	.	.	.	.	.	.	.	.	.	.	.	.	.	.
.	.	24B-\LL	.	8G\	.	.	.	.	8f'/	.	.	.	.	.	.	.	.	.	.	4r	.	8B-/	.	8F'/	.
.	.	24F\	.	.	.	.	.	.	.	.	.	.	.	.	.	.	.	.	.	.	.	.	.	.	.
.	.	24B-\	.	.	.	.	.	.	.	.	.	.	.	.	.	.	.	.	.	.	.	.	.	.	.
.	.	24c\	.	8A\J)	.	.	.	.	8f'/J)	.	.	.	.	.	.	.	.	.	.	.	.	8c/J)	.	8F'/J)	.
.	.	24F\	.	.	.	.	.	.	.	.	.	.	.	.	.	.	.	.	.	.	.	.	.	.	.
.	.	24c\JJ	.	.	.	.	.	.	.	.	.	.	.	.	.	.	.	.	.	.	.	.	.	.	.
=5	=5	=5	=5	=5	=5	=5	=5	=5	=5	=5	=5	=5	=5	=5	=5	=5	=5	=5	=5	=5	=5	=5	=5	=5	=5
2.ddd\	<p]	24d\LL	<	2.B-\	<]	2.r	2.r	.	(4f/	2.r	<]	2.r	2.r	.	2.r	2.r	.	2.r	.	2.dd\	<]	2.d/	<]	(4F/	<
.	.	24B-\	.	.	.	.	.	.	.	.	.	.	.	.	.	.	.	.	.	.	.	.	.	.	.
.	.	24F\	.	.	.	.	.	.	.	.	.	.	.	.	.	.	.	.	.	.	.	.	.	.	.
.	.	24d\	.	.	.	.	.	.	.	.	.	.	.	.	.	.	.	.	.	.	.	.	.	.	.
.	.	24B-\	.	.	.	.	.	.	.	.	.	.	.	.	.	.	.	.	.	.	.	.	.	.	.
.	.	24F\JJ	.	.	.	.	.	.	.	.	.	.	.	.	.	.	.	.	.	.	.	.	.	.	.
.	.	24d\LL	.	.	.	.	.	.	4f#/	.	]	.	.	.	.	.	.	.	.	.	.	.	.	4F#/	]
.	.	24B-\	.	.	.	.	.	.	.	.	.	.	.	.	.	.	.	.	.	.	.	.	.	.	.
.	.	24F#\	]	.	.	.	.	.	.	.	.	.	.	.	.	.	.	.	.	.	.	.	.	.	.
.	.	24d\	>	.	.	.	.	.	.	.	.	.	.	.	.	.	.	.	.	.	.	.	.	.	.
.	.	24B-\	.	.	.	.	.	.	.	.	.	.	.	.	.	.	.	.	.	.	.	.	.	.	.
.	.	24F#\JJ	.	.	.	.	.	.	.	.	.	.	.	.	.	.	.	.	.	.	.	.	.	.	.
.	.	24d\LL	.	.	.	.	.	.	4g/)	.	>	.	.	.	.	.	.	.	.	.	.	.	.	4G/)	>
.	.	24B-\	.	.	.	.	.	.	.	.	.	.	.	.	.	.	.	.	.	.	.	.	.	.	.
.	.	24G\	.	.	.	.	.	.	.	.	.	.	.	.	.	.	.	.	.	.	.	.	.	.	.
.	.	24d\	.	.	.	.	.	.	.	.	.	.	.	.	.	.	.	.	.	.	.	.	.	.	.
.	.	24B-\	.	.	.	.	.	.	.	.	.	.	.	.	.	.	.	.	.	.	.	.	.	.	.
.	.	24G\JJ	]	.	.	.	.	.	.	.	.	.	.	.	.	.	.	.	.	.	.	.	.	.	.
=6	=6	=6	=6	=6	=6	=6	=6	=6	=6	=6	=6	=6	=6	=6	=6	=6	=6	=6	=6	=6	=6	=6	=6	=6	=6
4ee\	>]p	24d-\LL	.	4B-\	>]p	2.r	2.r	.	4e/	2.r	p	2.r	2.r	.	2.r	2.r	.	2.r	.	4e/	>]p	4d-/	>]p	4G/	]p
.	.	24B-\	.	.	.	.	.	.	.	.	.	.	.	.	.	.	.	.	.	.	.	.	.	.	.
.	.	24G\	.	.	.	.	.	.	.	.	.	.	.	.	.	.	.	.	.	.	.	.	.	.	.
.	.	24d-\	.	.	.	.	.	.	.	.	.	.	.	.	.	.	.	.	.	.	.	.	.	.	.
.	.	24B-\	.	.	.	.	.	.	.	.	.	.	.	.	.	.	.	.	.	.	.	.	.	.	.
.	.	24G\JJ	.	.	.	.	.	.	.	.	.	.	.	.	.	.	.	.	.	.	.	.	.	.	.
[4ff\	.	24c\LL	.	4A\	.	.	.	.	[4fn/	.	.	.	.	.	.	.	.	.	.	[4f/	.	2c/	.	(4A/	.
.	.	24A\	.	.	.	.	.	.	.	.	.	.	.	.	.	.	.	.	.	.	.	.	.	.	.
.	.	24Fn\	.	.	.	.	.	.	.	.	.	.	.	.	.	.	.	.	.	.	.	.	.	.	.
.	.	24c\	.	.	.	.	.	.	.	.	.	.	.	.	.	.	.	.	.	.	.	.	.	.	.
.	.	24A\	.	.	.	.	.	.	.	.	.	.	.	.	.	.	.	.	.	.	.	.	.	.	.
.	.	24F\JJ	.	.	.	.	.	.	.	.	.	.	.	.	.	.	.	.	.	.	.	.	.	.	.
(16ff\LL]	.	24c\LL	.	4A\	.	.	.	.	16f/LL]	.	.	.	.	.	.	.	.	.	.	(16f/LL]	.	.	.	4Fn/)	.
! 32ggP/LLL	!	!	!	!	!	!	!	!	!	!	!	!	!	!	!	!	!	!	!	! 32gP/LLL	!	!	!	!	!
! 32ffP/	!	!	!	!	!	!	!	!	!	!	!	!	!	!	!	!	!	!	!	! 32fP/	!	!	!	!	!
! 32eeP/JJJ	!	!	!	!	!	!	!	!	!	!	!	!	!	!	!	!	!	!	!	! 32eP/JJJ	!	!	!	!	!
16ffp\	.	24A\	.	.	.	.	.	.	(16F/	.	.	.	.	.	.	.	.	.	.	16fp/	.	.	.	.	.
.	.	24F\	.	.	.	.	.	.	.	.	.	.	.	.	.	.	.	.	.	.	.	.	.	.	.
16aa\	.	24c\	.	.	.	.	.	.	16A/	.	.	.	.	.	.	.	.	.	.	16a/	.	.	.	.	.
16ccc\JJ)	.	24A\	.	.	.	.	.	.	16c/JJ)	.	.	.	.	.	.	.	.	.	.	16cc/JJ)	.	.	.	.	.
.	.	24F\JJ	.	.	.	.	.	.	.	.	.	.	.	.	.	.	.	.	.	.	.	.	.	.	.
=7	=7	=7	=7	=7	=7	=7	=7	=7	=7	=7	=7	=7	=7	=7	=7	=7	=7	=7	=7	=7	=7	=7	=7	=7	=7
(8.ccc\L	.	24c\LL	.	2E\	.	2.r	2.r	.	(8.c/L	2.r	.	2.r	2.r	.	2.r	2.r	.	2.r	.	(8.cc\L	.	2g/	.	4C/	.
.	.	24B-\	.	.	.	.	.	.	.	.	.	.	.	.	.	.	.	.	.	.	.	.	.	.	.
.	.	24G\	.	.	.	.	.	.	.	.	.	.	.	.	.	.	.	.	.	.	.	.	.	.	.
.	.	24c\	.	.	.	.	.	.	.	.	.	.	.	.	.	.	.	.	.	.	.	.	.	.	.
32ddd\LL	.	24B-\	.	.	.	.	.	.	32d/LL	.	.	.	.	.	.	.	.	.	.	32dd\LL	.	.	.	.	.
32ccc\JJJ	.	24G\JJ	.	.	.	.	.	.	32c/JJJ	.	.	.	.	.	.	.	.	.	.	32cc\JJJ	.	.	.	.	.
4bb-\)	.	24c\LL	.	.	.	.	.	.	4B-/)	.	.	.	.	.	.	.	.	.	.	4b-\)	.	.	.	4c\	.
.	.	24B-\	.	.	.	.	.	.	.	.	.	.	.	.	.	.	.	.	.	.	.	.	.	.	.
.	.	24G\	.	.	.	.	.	.	.	.	.	.	.	.	.	.	.	.	.	.	.	.	.	.	.
.	.	24c\	.	.	.	.	.	.	.	.	.	.	.	.	.	.	.	.	.	.	.	.	.	.	.
.	.	24B-\	.	.	.	.	.	.	.	.	.	.	.	.	.	.	.	.	.	.	.	.	.	.	.
.	.	24G\JJ	.	.	.	.	.	.	.	.	.	.	.	.	.	.	.	.	.	.	.	.	.	.	.
4aa\	.	24c\LL	.	4F\	.	.	.	.	4A/	.	.	.	.	.	.	.	.	.	.	4a/	.	4f/	.	4c\	.
.	.	24A\	.	.	.	.	.	.	.	.	.	.	.	.	.	.	.	.	.	.	.	.	.	.	.
.	.	24F\	.	.	.	.	.	.	.	.	.	.	.	.	.	.	.	.	.	.	.	.	.	.	.
.	.	24c\	.	.	.	.	.	.	.	.	.	.	.	.	.	.	.	.	.	.	.	.	.	.	.
.	.	24A\	.	.	.	.	.	.	.	.	.	.	.	.	.	.	.	.	.	.	.	.	.	.	.
.	.	24F\JJ	.	.	.	.	.	.	.	.	.	.	.	.	.	.	.	.	.	.	.	.	.	.	.
=8	=8	=8	=8	=8	=8	=8	=8	=8	=8	=8	=8	=8	=8	=8	=8	=8	=8	=8	=8	=8	=8	=8	=8	=8	=8
(8..ccc\L	.	24C\LL	.	2C/	.	2.r	2.r	.	(8..c/L	2.r	.	2.r	2.r	.	2.r	2.r	.	2.r	.	(8..cc/L	.	(8..a/L	.	2c\	.
.	.	24F\	.	.	.	.	.	.	.	.	.	.	.	.	.	.	.	.	.	.	.	.	.	.	.
.	.	24A\	.	.	.	.	.	.	.	.	.	.	.	.	.	.	.	.	.	.	.	.	.	.	.
.	.	24c\	.	.	.	.	.	.	.	.	.	.	.	.	.	.	.	.	.	.	.	.	.	.	.
.	.	24A\	.	.	.	.	.	.	.	.	.	.	.	.	.	.	.	.	.	.	.	.	.	.	.
32aa\Jkk)	.	24F\JJ	.	.	.	.	.	.	32A/Jkk)	.	.	.	.	.	.	.	.	.	.	32a/Jkk)	.	32f/Jkk)	.	.	.
8gg'\	.	24C/LL	.	.	.	.	.	.	8G'/	.	.	.	.	.	.	.	.	.	.	8g/	.	8e/	.	.	.
.	.	24C/	.	.	.	.	.	.	.	.	.	.	.	.	.	.	.	.	.	.	.	.	.	.	.
.	.	24BBn/	.	.	.	.	.	.	.	.	.	.	.	.	.	.	.	.	.	.	.	.	.	.	.
8r	.	24C/	.	.	.	.	.	.	8r	.	.	.	.	.	.	.	.	.	.	8r	.	8r	.	.	.
.	.	24GG/	.	.	.	.	.	.	.	.	.	.	.	.	.	.	.	.	.	.	.	.	.	.	.
.	.	24EE/JJ	.	.	.	.	.	.	.	.	.	.	.	.	.	.	.	.	.	.	.	.	.	.	.
4r	.	8CC/	.	4r	.	.	.	.	4r	.	.	.	.	.	.	.	.	.	.	4r	.	4r	.	4r	.
.	.	8r	.	.	.	.	.	.	.	.	.	.	.	.	.	.	.	.	.	.	.	.	.	.	.
=9	=9	=9	=9	=9	=9	=9	=9	=9	=9	=9	=9	=9	=9	=9	=9	=9	=9	=9	=9	=9	=9	=9	=9	=9	=9
(24g\LL	p	4c\	p	2.r	.	2.r	2.r	.	2.r	2.r	.	2.r	2.r	.	2.r	2.r	.	2.r	.	(24g\LL	p	4e-/	p	4c\	p
24ee-\	.	.	.	.	.	.	.	.	.	.	.	.	.	.	.	.	.	.	.	24ee-\	.	.	.	.	.
24dd\)	.	.	.	.	.	.	.	.	.	.	.	.	.	.	.	.	.	.	.	24dd\)	.	.	.	.	.
(24cc\	.	.	.	.	.	.	.	.	.	.	.	.	.	.	.	.	.	.	.	(24cc\	.	.	.	.	.
24bn\	.	.	.	.	.	.	.	.	.	.	.	.	.	.	.	.	.	.	.	24bn\	.	.	.	.	.
24cc\JJ)	.	.	.	.	.	.	.	.	.	.	.	.	.	.	.	.	.	.	.	24cc\JJ)	.	.	.	.	.
24bz'\LL	z	2dz\	>z	.	.	.	.	.	.	.	.	.	.	.	.	.	.	.	.	24bz'\LL	z	2fz/	>z	2dz\	>z
24dd'\	.	.	.	.	.	.	.	.	.	.	.	.	.	.	.	.	.	.	.	24dd'\	.	.	.	.	.
24ff'\	.	.	.	.	.	.	.	.	.	.	.	.	.	.	.	.	.	.	.	24ff'\	.	.	.	.	.
24gg'\	.	.	.	.	.	.	.	.	.	.	.	.	.	.	.	.	.	.	.	24gg'\	.	.	.	.	.
24aa-'\	.	.	.	.	.	.	.	.	.	.	.	.	.	.	.	.	.	.	.	24aa-'\	.	.	.	.	.
24gg'\JJ	.	.	.	.	.	.	.	.	.	.	.	.	.	.	.	.	.	.	.	24gg'\JJ	.	.	.	.	.
24ff'\LL	>	.	.	.	.	.	.	.	.	.	.	.	.	.	.	.	.	.	.	24ff'\LL	>	.	.	.	.
24ee-'\	.	.	.	.	.	.	.	.	.	.	.	.	.	.	.	.	.	.	.	24ee-'\	.	.	.	.	.
24dd'\	.	.	.	.	.	.	.	.	.	.	.	.	.	.	.	.	.	.	.	24dd'\	.	.	.	.	.
24cc'\	.	.	.	.	.	.	.	.	.	.	.	.	.	.	.	.	.	.	.	24cc'\	.	.	.	.	.
24b'\	.	.	.	.	.	.	.	.	.	.	.	.	.	.	.	.	.	.	.	24b'\	.	.	.	.	.
24dd'\JJ	]	.	.	.	.	.	.	.	.	.	.	.	.	.	.	.	.	.	.	24dd'\JJ	]	.	.	.	.
=10	=10	=10	=10	=10	=10	=10	=10	=10	=10	=10	=10	=10	=10	=10	=10	=10	=10	=10	=10	=10	=10	=10	=10	=10	=10
(24dd\LL	.	2e-\	]	2.r	.	2.r	2.r	.	2.r	2.r	.	2.r	2.r	.	2.r	2.r	.	2.r	.	(24dd\LL	.	2g/	]	2e-\	]
24bn\	.	.	.	.	.	.	.	.	.	.	.	.	.	.	.	.	.	.	.	24bn\	.	.	.	.	.
24cc\)	.	.	.	.	.	.	.	.	.	.	.	.	.	.	.	.	.	.	.	24cc\)	.	.	.	.	.
24ee-'\	.	.	.	.	.	.	.	.	.	.	.	.	.	.	.	.	.	.	.	24ee-'\	.	.	.	.	.
24gg'\	.	.	.	.	.	.	.	.	.	.	.	.	.	.	.	.	.	.	.	24gg'\	.	.	.	.	.
24bbn'\JJ	.	.	.	.	.	.	.	.	.	.	.	.	.	.	.	.	.	.	.	24bbn'\JJ	.	.	.	.	.
(24ccc\LL	.	.	.	.	.	.	.	.	.	.	.	.	.	.	.	.	.	.	.	(24ccc\LL	.	.	.	.	.
24gg\)	.	.	.	.	.	.	.	.	.	.	.	.	.	.	.	.	.	.	.	24gg\)	.	.	.	.	.
24bb'\	.	.	.	.	.	.	.	.	.	.	.	.	.	.	.	.	.	.	.	24bb'\	.	.	.	.	.
(24ccc\	.	.	.	.	.	.	.	.	.	.	.	.	.	.	.	.	.	.	.	(24ccc\	.	.	.	.	.
24gg\)	.	.	.	.	.	.	.	.	.	.	.	.	.	.	.	.	.	.	.	24gg\)	.	.	.	.	.
24ccc'\JJ	.	.	.	.	.	.	.	.	.	.	.	.	.	.	.	.	.	.	.	24ccc'\JJ	.	.	.	.	.
8eee-'\	.	4r	.	.	.	.	.	.	.	.	.	.	.	.	.	.	.	.	.	8eee-'\	.	4r	.	4r	.
8r	.	.	.	.	.	.	.	.	.	.	.	.	.	.	.	.	.	.	.	8r	.	.	.	.	.
=11	=11	=11	=11	=11	=11	=11	=11	=11	=11	=11	=11	=11	=11	=11	=11	=11	=11	=11	=11	=11	=11	=11	=11	=11	=11
24een'\LL	>f	2B-\	>f	2B-\	>f	2.een/	2.g\	>f]	(4d-/	2.r	>f	2.r	2.r	.	2.r	2.r	.	2.r	.	24een'\LL	>f	2.d-/	>f	2.en/ 2.G/	>f
24ddd-'\	.	.	.	.	.	.	.	.	.	.	.	.	.	.	.	.	.	.	.	24ddd-'\	.	.	.	.	.
24ccc'\	.	.	.	.	.	.	.	.	.	.	.	.	.	.	.	.	.	.	.	24ccc'\	.	.	.	.	.
24bb-'\	.	.	.	.	.	.	.	.	.	.	.	.	.	.	.	.	.	.	.	24bb-'\	.	.	.	.	.
24aa-'\	.	.	.	.	.	.	.	.	.	.	.	.	.	.	.	.	.	.	.	24aa-'\	.	.	.	.	.
24gg'\JJ	.	.	.	.	.	.	.	.	.	.	.	.	.	.	.	.	.	.	.	24gg'\JJ	.	.	.	.	.
(24ff\LL	.	.	.	.	.	.	.	.	4B-/	.	.	.	.	.	.	.	.	.	.	(24ff\LL	.	.	.	.	.
24ee\)	.	.	.	.	.	.	.	.	.	.	.	.	.	.	.	.	.	.	.	24ee\)	.	.	.	.	.
24gg'\	.	.	.	.	.	.	.	.	.	.	.	.	.	.	.	.	.	.	.	24gg'\	.	.	.	.	.
24dd-'\	.	.	.	.	.	.	.	.	.	.	.	.	.	.	.	.	.	.	.	24dd-'\	.	.	.	.	.
24cc'\	.	.	.	.	.	.	.	.	.	.	.	.	.	.	.	.	.	.	.	24cc'\	.	.	.	.	.
24b-'\JJ	.	.	.	.	.	.	.	.	.	.	.	.	.	.	.	.	.	.	.	24b-'\JJ	.	.	.	.	.
24a-'/LL	]p	4B-\	]p	4B-\	]p	.	.	.	4G/)	.	]p	.	.	.	.	.	.	.	.	24a-'/LL	]p	.	.	.	.
24g'/	.	.	.	.	.	.	.	.	.	.	.	.	.	.	.	.	.	.	.	24g'/	.	.	.	.	.
24f'/	.	.	.	.	.	.	.	.	.	.	.	.	.	.	.	.	.	.	.	24f'/	.	.	.	.	.
24en'/	.	.	.	.	.	.	.	.	.	.	.	.	.	.	.	.	.	.	.	24en'/	.	.	.	.	.
24dd-'/	.	.	.	.	.	.	.	.	.	.	.	.	.	.	.	.	.	.	.	24dd-'/	.	.	.	.	.
24e'/JJ	.	.	.	.	.	.	.	.	.	.	.	.	.	.	.	.	.	.	.	24e'/JJ	.	.	.	.	.
=12	=12	=12	=12	=12	=12	=12	=12	=12	=12	=12	=12	=12	=12	=12	=12	=12	=12	=12	=12	=12	=12	=12	=12	=12	=12
24f'/LL	.	2.Bn\	.	2.Bn\	.	(8ff/L	(8a-\L	p	8A-/	2.r	.	2.r	2.r	.	2.r	2.r	.	2.r	.	24f'/LL	.	2.dn/	]p	2.dn\	]p
24ddn'/	.	.	.	.	.	.	.	.	.	.	.	.	.	.	.	.	.	.	.	24ddn'/	.	.	.	.	.
24f'/	.	.	.	.	.	.	.	.	.	.	.	.	.	.	.	.	.	.	.	24f'/	.	.	.	.	.
24g'/	.	.	.	.	.	8gg/	8g\	.	8r	.	.	.	.	.	.	.	.	.	.	24g'/	.	.	.	.	.
24dd'/	.	.	.	.	.	.	.	.	.	.	.	.	.	.	.	.	.	.	.	24dd'/	.	.	.	.	.
24g'/JJ	.	.	.	.	.	.	.	.	.	.	.	.	.	.	.	.	.	.	.	24g'/JJ	.	.	.	.	.
24a-'/LL	.	.	.	.	.	8aa-/	8f\	.	4r	.	.	.	.	.	.	.	.	.	.	24a-'/LL	.	.	.	.	.
24dd'/	.	.	.	.	.	.	.	.	.	.	.	.	.	.	.	.	.	.	.	24dd'/	.	.	.	.	.
24a-'/	.	.	.	.	.	.	.	.	.	.	.	.	.	.	.	.	.	.	.	24a-'/	.	.	.	.	.
24g'/	.	.	.	.	.	8gg/)	8g\)	.	.	.	.	.	.	.	.	.	.	.	.	24g'/	.	.	.	.	.
24dd'/	<	.	.	.	.	.	.	.	.	.	.	.	.	.	.	.	.	.	.	24dd'/	<	.	.	.	.
24g'/JJ	.	.	.	.	.	.	.	.	.	.	.	.	.	.	.	.	.	.	.	24g'/JJ	.	.	.	.	.
(24f/LL	.	.	.	.	.	8ff/	8a-\	<	4r	.	.	.	.	.	.	.	.	.	.	(24f/LL	.	.	.	.	.
24a-/)	.	.	.	.	.	.	.	.	.	.	.	.	.	.	.	.	.	.	.	24a-/)	.	.	.	.	.
24dd'/	.	.	.	.	.	.	.	.	.	.	.	.	.	.	.	.	.	.	.	24dd'/	.	.	.	.	.
(24f/	.	.	.	.	.	8ff/J	8g\J	.	.	.	.	.	.	.	.	.	.	.	.	(24f/	.	.	.	.	.
24g/)	.	.	.	.	.	.	.	.	.	.	.	.	.	.	.	.	.	.	.	24g/)	.	.	.	.	.
24dd'/JJ	.	.	.	.	.	.	.	.	.	.	.	.	.	.	.	.	.	.	.	24dd'/JJ	.	.	.	.	.
=13	=13	=13	=13	=13	=13	=13	=13	=13	=13	=13	=13	=13	=13	=13	=13	=13	=13	=13	=13	=13	=13	=13	=13	=13	=13
(24en/LL	]f	8c\L	<]f	8c\L	<]f	8een/L	8g\L	]f	8g/L	8e\L	f	2.r	2.r	.	2.r	2.r	.	2.r	.	(24en/LL	]f	(24en/LL	<]f	8c/L	<]f
24g/	.	.	.	.	.	.	.	.	.	.	.	.	.	.	.	.	.	.	.	24g/	.	24g/	.	.	.
24cc/)	.	.	.	.	.	.	.	.	.	.	.	.	.	.	.	.	.	.	.	24cc/)	.	24cc/)	.	.	.
(24an/	.	8F\J	.	8F\J	.	(24dd/L	8an\J	.	8f/J	8d\J	.	.	.	.	.	.	.	.	.	(24an/	.	(24a/	.	8F/J	.
24dd/	.	.	.	.	.	24ff/	.	.	.	.	.	.	.	.	.	.	.	.	.	24dd/	.	24f/	.	.	.
24ff/JJ)	.	.	.	.	.	24aa/JJ)	.	.	.	.	.	.	.	.	.	.	.	.	.	24ff/JJ)	.	24d/JJ)	.	.	.
(24g\LL	.	4G\	.	4G\	.	(4cc/	(4e\	.	(4e/	(4c\	.	.	.	.	.	.	.	.	.	(24g\LL	.	(4e/ 4c/	.	4G/	.
24cc\	.	.	.	.	.	.	.	.	.	.	.	.	.	.	.	.	.	.	.	24cc\	.	.	.	.	.
24ee\)	.	.	.	.	.	.	.	.	.	.	.	.	.	.	.	.	.	.	.	24ee\)	.	.	.	.	.
24gg'\	.	.	.	.	.	.	.	.	.	.	.	.	.	.	.	.	.	.	.	24gg'\	.	.	.	.	.
24gg'\	.	.	.	.	.	.	.	.	.	.	.	.	.	.	.	.	.	.	.	24gg'\	.	.	.	.	.
24gg'\JJ	.	.	.	.	.	.	.	.	.	.	.	.	.	.	.	.	.	.	.	24gg'\JJ	.	.	.	.	.
(24gg\LL	.	4GG/	.	4GG/	.	4bn/)	4f\)	.	4d/)	4Bn\)	.	.	.	.	.	.	.	.	.	(24gg\LL	.	4d/ 4Bn/)	.	(8..F/L	.
24ff#\	.	.	.	.	.	.	.	.	.	.	.	.	.	.	.	.	.	.	.	24ff#\	.	.	.	.	.
24ffn\	.	.	.	.	.	.	.	.	.	.	.	.	.	.	.	.	.	.	.	24ffn\	.	.	.	.	.
24ee\	.	.	.	.	.	.	.	.	.	.	.	.	.	.	.	.	.	.	.	24ee\	.	.	.	.	.
24ff\	.	.	.	.	.	.	.	.	.	.	.	.	.	.	.	.	.	.	.	24ff\	.	.	.	.	.
24bn\JJ)	.	.	.	.	.	.	.	.	.	.	.	.	.	.	.	.	.	.	.	24bn\JJ)	.	.	.	32D/Jkk)	.
=14	=14	=14	=14	=14	=14	=14	=14	=14	=14	=14	=14	=14	=14	=14	=14	=14	=14	=14	=14	=14	=14	=14	=14	=14	=14
(8dd\L	p	24C\LL	p	8C/	p	(8dd/L	4e\	p	4c/	4c\	p	2.r	2.r	.	2.r	2.r	.	2.r	.	(8dd\L	p	(2e/ (2G/	p	[2.C/	p
.	.	24E\	.	.	.	.	.	.	.	.	.	.	.	.	.	.	.	.	.	.	.	.	.	.	.
.	.	24G\	.	.	.	.	.	.	.	.	.	.	.	.	.	.	.	.	.	.	.	.	.	.	.
8cc\J)	.	24C\	.	8r	.	8cc/J)	.	.	.	.	.	.	.	.	.	.	.	.	.	8cc\J)	.	.	.	.	.
.	.	24E\	.	.	.	.	.	.	.	.	.	.	.	.	.	.	.	.	.	.	.	.	.	.	.
.	.	24G\JJ	.	.	.	.	.	.	.	.	.	.	.	.	.	.	.	.	.	.	.	.	.	.	.
24r	.	24C\LL	.	8C/	.	4r	4ryy	.	4r	4ryy	.	.	.	.	.	.	.	.	.	24r	.	.	.	.	.
24eee'\LL	.	24E\	.	.	.	.	.	.	.	.	.	.	.	.	.	.	.	.	.	24eee'\LL	.	.	.	.	.
24ddd'\	.	24G\	.	.	.	.	.	.	.	.	.	.	.	.	.	.	.	.	.	24ddd'\	.	.	.	.	.
24ccc'\	.	24C\	.	8r	.	.	.	.	.	.	.	.	.	.	.	.	.	.	.	24ccc'\	.	.	.	.	.
24bbn'\	.	24E\	.	.	.	.	.	.	.	.	.	.	.	.	.	.	.	.	.	24bbn'\	.	.	.	.	.
24aa'\JJ	.	24G\JJ	.	.	.	.	.	.	.	.	.	.	.	.	.	.	.	.	.	24aa'\JJ	.	.	.	.	.
*	*	*	*	*	*	*	*	*	*clefF4	*	*	*	*	*	*	*	*	*	*	*	*	*	*	*	*
(24gg\LL	.	24C\LL	.	8C/	.	(4ff/	(4bn\	.	(8..Bn/L	4r	.	.	.	.	.	.	.	.	.	(24gg\LL	.	4f/ 4A-/)	.	.	.
24ff\)	.	24F\	.	.	.	.	.	.	.	.	.	.	.	.	.	.	.	.	.	24ff\)	.	.	.	.	.
24dd'\	.	24A-\	.	.	.	.	.	.	.	.	.	.	.	.	.	.	.	.	.	24dd'\	.	.	.	.	.
(24ff\	.	24C\	.	8r	.	.	.	.	.	.	.	.	.	.	.	.	.	.	.	(24ff\	.	.	.	.	.
24dd\)	.	24F\	.	.	.	.	.	.	.	.	.	.	.	.	.	.	.	.	.	24dd\)	.	.	.	.	.
24bn'\JJ	.	24A-\JJ	.	.	.	.	.	.	32d/Jkk)	.	.	.	.	.	.	.	.	.	.	24bn'\JJ	.	.	.	.	.
=15	=15	=15	=15	=15	=15	=15	=15	=15	=15	=15	=15	=15	=15	=15	=15	=15	=15	=15	=15	=15	=15	=15	=15	=15	=15
(24bn\LL	.	24C\LL	.	8C/	.	8ee\)	8cc\)	.	4c/	2.r	.	2.r	2.r	.	2.r	2.r	.	2.r	.	(24bn\LL	.	(2e/ 2G/	.	2.C/_	.
24cc\)	.	24E\	.	.	.	.	.	.	.	.	.	.	.	.	.	.	.	.	.	24cc\)	.	.	.	.	.
24ee'\	.	24G\	.	.	.	.	.	.	.	.	.	.	.	.	.	.	.	.	.	24ee'\	.	.	.	.	.
(24gg\	.	24C\	.	8r	.	8r	8r	.	.	.	.	.	.	.	.	.	.	.	.	(24gg\	.	.	.	.	.
24bbn\)	.	24E\	.	.	.	.	.	.	.	.	.	.	.	.	.	.	.	.	.	24bbn\)	.	.	.	.	.
24ccc'\JJ	.	24G\JJ	.	.	.	.	.	.	.	.	.	.	.	.	.	.	.	.	.	24ccc'\JJ	.	.	.	.	.
24eee'\LL	.	24C\LL	.	8C/	.	4r	4r	.	4r	.	.	.	.	.	.	.	.	.	.	24eee'\LL	.	.	.	.	.
24ddd'\	.	24E\	.	.	.	.	.	.	.	.	.	.	.	.	.	.	.	.	.	24ddd'\	.	.	.	.	.
24ccc'\	.	24G\	.	.	.	.	.	.	.	.	.	.	.	.	.	.	.	.	.	24ccc'\	.	.	.	.	.
24bb'\	.	24C\	.	8r	.	.	.	.	.	.	.	.	.	.	.	.	.	.	.	24bb'\	.	.	.	.	.
24aa'\	.	24E\	.	.	.	.	.	.	.	.	.	.	.	.	.	.	.	.	.	24aa'\	.	.	.	.	.
24gg'\JJ	.	24G\JJ	.	.	.	.	.	.	.	.	.	.	.	.	.	.	.	.	.	24gg'\JJ	.	.	.	.	.
(24ff\LLxx	pp	24C\LLxx	pp	8C/xx	pp	4ff\xx	4bn\	pp	(8..Bn/Lxx	.	pp	.	.	.	.	.	.	.	.	(24ff\LLxx	pp	4fn/)xx 4A-/)	pp	.	.
24dd\	.	24F\	.	.	.	.	.	.	.	.	.	.	.	.	.	.	.	.	.	24dd\	.	.	.	.	.
24b\)	.	24A-\	.	.	.	.	.	.	.	.	.	.	.	.	.	.	.	.	.	24b\)	.	.	.	.	.
(24aa-\	.	24C\	.	8r	.	.	.	.	.	.	.	.	.	.	.	.	.	.	.	(24aa-\	.	.	.	.	.
24ff\	.	24F\	.	.	.	.	.	.	.	.	.	.	.	.	.	.	.	.	.	24ff\	.	.	.	.	.
24b\JJ)	.	24A-\JJ	.	.	.	.	.	.	32d/Jkk)	.	.	.	.	.	.	.	.	.	.	24b\JJ)	.	.	.	.	.
=16	=16	=16	=16	=16	=16	=16	=16	=16	=16	=16	=16	=16	=16	=16	=16	=16	=16	=16	=16	=16	=16	=16	=16	=16	=16
(4bn\	.	(4F\	.	4.C/	.	(4ff\	(4bn\xx	.	(4d/	2.r	.	2.r	2.r	.	2.r	2.r	.	2.r	.	(4bn\	.	(4f/ 4A-/	.	4.C/]	.
8cc\)	.	8E\)	.	.	.	8ee\)	8cc\)	.	8c/)	.	.	.	.	.	.	.	.	.	.	8cc\)	.	8e/ 8G/)	.	.	.
8r	.	8r	.	8r	.	8r	8r	.	8r	.	.	.	.	.	.	.	.	.	.	8r	.	8r	.	8r	.
4r	.	4r	.	4r	.	4r	4r	.	4r	.	.	.	.	.	.	.	.	.	.	4r	.	4r	.	4r	.
=17	=17	=17	=17	=17	=17	=17	=17	=17	=17	=17	=17	=17	=17	=17	=17	=17	=17	=17	=17	=17	=17	=17	=17	=17	=17
8ff\L	p	2FF/	p	2FF/	p	2ff\	2a\	p	(4f/	2A\	p	2cc/	2e\	p	2cc/	2c\	p	4FF/	p	8f/L	p	2An/	p	2c\	p
! (32ggP/LLL	!	!	!	!	!	!	!	!	!	!	!	!	!	!	!	!	!	!	!	! (32gP/LLL	!	!	!	!	!
! 32ffP/	!	!	!	!	!	!	!	!	!	!	!	!	!	!	!	!	!	!	!	! 32fP/	!	!	!	!	!
! 32eeP/JJJ	!	!	!	!	!	!	!	!	!	!	!	!	!	!	!	!	!	!	!	! 32eP/JJJ	!	!	!	!	!
16.ffp\L)	.	.	.	.	.	.	.	.	.	.	.	.	.	.	.	.	.	.	.	16.fp/L)	.	.	.	.	.
32aa\JJk	.	.	.	.	.	.	.	.	.	.	.	.	.	.	.	.	.	.	.	32a/JJk	.	.	.	.	.
(8..ccc\L	.	.	.	.	.	.	.	.	4c/)	.	.	.	.	.	.	.	.	4r	.	(8..cc\L	.	.	.	.	.
32aa\Jkk)	.	.	.	.	.	.	.	.	.	.	.	.	.	.	.	.	.	.	.	32a\Jkk)	.	.	.	.	.
(8..dddz\L	z	4Fz\	z	4Fz\	z	4bnz/	4a-\	z	4Bnz/	4A-\	z	4ccz/	4c\	z	4ddz/	4r	z	4FFz/	z	(8..ddz\L	z	4A-z/	z	(8..Bnz\L	z
32bbn\Jkk)	.	.	.	.	.	.	.	.	.	.	.	.	.	.	.	.	.	.	.	32bn\Jkk)	.	.	.	32d\Jkk)	.
=18	=18	=18	=18	=18	=18	=18	=18	=18	=18	=18	=18	=18	=18	=18	=18	=18	=18	=18	=18	=18	=18	=18	=18	=18	=18
(24ccc\LL	p	[4G\	p	(2E\	p	[2cc/	4g\	p	4c/	2G\	p	(2dd/	(2g\	p	2.cc/	2.c\	p	4C/	p	(24cc\LL	.	(8..G/L	p	4c\	p
! 32dddP/LLL	!	!	!	!	!	!	!	!	!	!	!	!	!	!	!	!	!	!	!	! 32ddP/LLL	!	!	!	!	!
! 32cccP/	!	!	!	!	!	!	!	!	!	!	!	!	!	!	!	!	!	!	!	! 32ccP/	!	!	!	!	!
! 32bbP/JJJ	!	!	!	!	!	!	!	!	!	!	!	!	!	!	!	!	!	!	!	! 32bP/JJJ	!	!	!	!	!
24cccp\	.	.	.	.	.	.	.	.	.	.	.	.	.	.	.	.	.	.	.	24ccp\	.	.	.	.	.
24eee\)	.	.	.	.	.	.	.	.	.	.	.	.	.	.	.	.	.	.	.	24ee\)	.	.	.	.	.
(24ggg\	.	.	.	.	.	.	.	.	.	.	.	.	.	.	.	.	.	.	.	(24gg\	.	.	.	.	.
24eee\	.	.	.	.	.	.	.	.	.	.	.	.	.	.	.	.	.	.	.	24ee\	.	.	.	.	.
24ccc\JJ)	.	.	.	.	.	.	.	.	.	.	.	.	.	.	.	.	.	.	.	24cc\JJ)	.	32c/Jkk)	.	.	.
(4bb-\	.	(24G\LL]	.	.	.	.	(4b-\	.	(4B-/	.	.	.	.	.	.	.	.	4r	.	(4b-\	.	2c/	.	(4G/	.
.	.	24G\	.	.	.	.	.	.	.	.	.	.	.	.	.	.	.	.	.	.	.	.	.	.	.
.	.	24B-\)	.	.	.	.	.	.	.	.	.	.	.	.	.	.	.	.	.	.	.	.	.	.	.
.	.	(24d\	.	.	.	.	.	.	.	.	.	.	.	.	.	.	.	.	.	.	.	.	.	.	.
.	.	24B-\	.	.	.	.	.	.	.	.	.	.	.	.	.	.	.	.	.	.	.	.	.	.	.
.	.	24G\JJ)	.	.	.	.	.	.	.	.	.	.	.	.	.	.	.	.	.	.	.	.	.	.	.
4aa\)	.	(24F\LL	.	4F\)	.	8.cc/L]	4an\)	.	4An/)	4F\	.	4ee/)	4cc\)	.	.	.	.	4r	.	4a/)	.	.	.	4A/)	.
.	.	24A\	.	.	.	.	.	.	.	.	.	.	.	.	.	.	.	.	.	.	.	.	.	.	.
.	.	24d\)	.	.	.	.	.	.	.	.	.	.	.	.	.	.	.	.	.	.	.	.	.	.	.
.	.	(24c\	.	.	.	.	.	.	.	.	.	.	.	.	.	.	.	.	.	.	.	.	.	.	.
.	.	24A\	.	.	.	32cc#/Jkk	.	.	.	.	.	.	.	.	.	.	.	.	.	.	.	.	.	.	.
.	.	24F\JJ)	.	.	.	32ryy	.	.	.	.	.	.	.	.	.	.	.	.	.	.	.	.	.	.	.
=19	=19	=19	=19	=19	=19	=19	=19	=19	=19	=19	=19	=19	=19	=19	=19	=19	=19	=19	=19	=19	=19	=19	=19	=19	=19
(24gg\LL	.	4B-\	.	4BB-/	.	(8..dd/L	(8..g\L	.	4d/	4B-\	.	4r	4ryy	.	4dd/	4r	.	4r	.	(24g\LL	.	4d/	.	4d\	.
! 32aaP/LLL	!	!	!	!	!	!	!	!	!	!	!	!	!	!	!	!	!	!	!	! 32aP/LLL	!	!	!	!	!
! 32ggP/	!	!	!	!	!	!	!	!	!	!	!	!	!	!	!	!	!	!	!	! 32gP/	!	!	!	!	!
! 32ff#P/JJJ	!	!	!	!	!	!	!	!	!	!	!	!	!	!	!	!	!	!	!	! 32f#P/JJJ	!	!	!	!	!
24ggp\	.	.	.	.	.	.	.	.	.	.	.	.	.	.	.	.	.	.	.	24gp\	.	.	.	.	.
24eee-\)	.	.	.	.	.	.	.	.	.	.	.	.	.	.	.	.	.	.	.	24ee-\)	.	.	.	.	.
(24ddd\	.	.	.	.	.	.	.	.	.	.	.	.	.	.	.	.	.	.	.	(24dd\	.	.	.	.	.
24bb-\	.	.	.	.	.	.	.	.	.	.	.	.	.	.	.	.	.	.	.	24b-\	.	.	.	.	.
24gg\JJ)	.	.	.	.	.	32gg/Jkk)	32b-\Jkk)	.	.	.	.	.	.	.	.	.	.	.	.	24g\JJ)	.	.	.	.	.
(24ff\LL	.	4c\	.	4C/	.	(4ff/	(4a\	.	(4c/	(4c\	.	(4cc/	(4e\	.	2cc/	2c\	.	4C/	.	(24f/LL	.	(4An/	.	(4c\	.
24cc\	.	.	.	.	.	.	.	.	.	.	.	.	.	.	.	.	.	.	.	24c/	.	.	.	.	.
24ff\J)	.	.	.	.	.	.	.	.	.	.	.	.	.	.	.	.	.	.	.	24f/J)	.	.	.	.	.
[8ccc\J	.	.	.	.	.	.	.	.	.	.	.	.	.	.	.	.	.	.	.	[8cc/J	.	.	.	.	.
(24ccc\LL]	.	4C/	.	4C/	.	4ee/)	4g\)	.	4e/)	4B-\)	.	4dd/)	4g\)	.	.	.	.	24C/LL	.	(24cc/LL]	.	4B-/)	.	4E/)	.
24bb-\	.	.	.	.	.	.	.	.	.	.	.	.	.	.	.	.	.	24C/	.	24b-/	.	.	.	.	.
24ddd\)	.	.	.	.	.	.	.	.	.	.	.	.	.	.	.	.	.	24C/	.	24dd/)	.	.	.	.	.
(24bb-\	.	.	.	.	.	.	.	.	.	.	.	.	.	.	.	.	.	24C/	.	(24b-/	.	.	.	.	.
24gg\	.	.	.	.	.	.	.	.	.	.	.	.	.	.	.	.	.	24C/	.	24g/	.	.	.	.	.
24ee\JJ)	.	.	.	.	.	.	.	.	.	.	.	.	.	.	.	.	.	24C/JJ	.	24en/JJ)	.	.	.	.	.
=20	=20	=20	=20	=20	=20	=20	=20	=20	=20	=20	=20	=20	=20	=20	=20	=20	=20	=20	=20	=20	=20	=20	=20	=20	=20
(4gg\	.	4FF/	.	4.FF/	.	(4ee/	(4b-\	.	(4e/	(4B-\	.	(4dd/	(4g\	.	4cc/	4c\	.	4FF/	.	(4g/	.	(4B-/	.	(4E/	.
8ff\)	.	8r	.	.	.	8ff/)	8a\)	.	8f/)	8A\)	.	8ee/)	8cc\)	.	4r	4ryy	.	8r	.	8f/)	.	8A/)	.	8F/)	.
8r	.	24A\LL	.	(8F\L	.	(8a/L	(4ff\	.	(8f'/L	(8F\L	.	(8cc'/L	(8c'\L	.	.	.	.	8FF/L	.	8r	.	(8A/L	.	(8f'\L	.
.	.	24F\	.	.	.	.	.	.	.	.	.	.	.	.	.	.	.	.	.	.	.	.	.	.	.
.	.	24A\JJ	.	.	.	.	.	.	.	.	.	.	.	.	.	.	.	.	.	.	.	.	.	.	.
4r	.	24B-\LL	.	8G\	.	8b-/	.	.	8f'/	8G\	.	8cc'/	8c'\	.	4r	4ryy	.	8FF/	.	4r	.	8B-/	.	8f'\	.
.	.	24F\	.	.	.	.	.	.	.	.	.	.	.	.	.	.	.	.	.	.	.	.	.	.	.
.	.	24B-\	.	.	.	.	.	.	.	.	.	.	.	.	.	.	.	.	.	.	.	.	.	.	.
.	.	24c\	.	8A\J)	.	8cc/J)	8ee-\)	.	8f'/J)	8A\J)	.	8cc'/J)	8c'\J)	.	.	.	.	8FF/J	.	.	.	8c/J)	.	8f'\J)	.
.	.	24F\	.	.	.	.	.	.	.	.	.	.	.	.	.	.	.	.	.	.	.	.	.	.	.
.	.	24c\JJ	.	.	.	.	.	.	.	.	.	.	.	.	.	.	.	.	.	.	.	.	.	.	.
=21	=21	=21	=21	=21	=21	=21	=21	=21	=21	=21	=21	=21	=21	=21	=21	=21	=21	=21	=21	=21	=21	=21	=21	=21	=21
2.ddd\	<]	24d\LL	<	2.B-\	<]	2.dd/	(4dd\	<]>]	(4f/	2.B-\	<]	4cc/	4c\	.	2.r	2.r	.	4FF/	.	2.dd\	<]	2.d/	<]	(4f\	<
.	.	24B-\	.	.	.	.	.	.	.	.	.	.	.	.	.	.	.	.	.	.	.	.	.	.	.
.	.	24F\	.	.	.	.	.	.	.	.	.	.	.	.	.	.	.	.	.	.	.	.	.	.	.
.	.	24d\	.	.	.	.	.	.	.	.	.	.	.	.	.	.	.	.	.	.	.	.	.	.	.
.	.	24B-\	.	.	.	.	.	.	.	.	.	.	.	.	.	.	.	.	.	.	.	.	.	.	.
.	.	24F\JJ	.	.	.	.	.	.	.	.	.	.	.	.	.	.	.	.	.	.	.	.	.	.	.
.	.	24d\LL	.	.	.	.	4f#\	.	4f#/	.	]	4r	4ryy	.	.	.	.	4r	.	.	.	.	.	4f#\	]
.	.	24B-\	.	.	.	.	.	.	.	.	.	.	.	.	.	.	.	.	.	.	.	.	.	.	.
.	.	24F#\	]	.	.	.	.	.	.	.	.	.	.	.	.	.	.	.	.	.	.	.	.	.	.
.	.	24d\	>	.	.	.	.	.	.	.	.	.	.	.	.	.	.	.	.	.	.	.	.	.	.
.	.	24B-\	.	.	.	.	.	.	.	.	.	.	.	.	.	.	.	.	.	.	.	.	.	.	.
.	.	24F#\JJ	.	.	.	.	.	.	.	.	.	.	.	.	.	.	.	.	.	.	.	.	.	.	.
.	.	24d\LL	.	.	.	.	4g\)	.	4g/)	.	>	4r	4ryy	.	.	.	.	4r	.	.	.	.	.	4g\)	>
.	.	24B-\	.	.	.	.	.	.	.	.	.	.	.	.	.	.	.	.	.	.	.	.	.	.	.
.	.	24G\	.	.	.	.	.	.	.	.	.	.	.	.	.	.	.	.	.	.	.	.	.	.	.
.	.	24d\	.	.	.	.	.	.	.	.	.	.	.	.	.	.	.	.	.	.	.	.	.	.	.
.	.	24B-\	.	.	.	.	.	.	.	.	.	.	.	.	.	.	.	.	.	.	.	.	.	.	.
.	.	24G\JJ	]	.	.	.	.	.	.	.	.	.	.	.	.	.	.	.	.	.	.	.	.	.	.
=22	=22	=22	=22	=22	=22	=22	=22	=22	=22	=22	=22	=22	=22	=22	=22	=22	=22	=22	=22	=22	=22	=22	=22	=22	=22
4ee\	>]p	24d-\LL	p	4B-\	>]p	4ee/	4g\	p	4e/	4G\	p	4dd/	4dd\	p	2.r	2.r	.	2.r	.	4e/	>]p	4d-/	>]p	4G/	]p
.	.	24B-\	.	.	.	.	.	.	.	.	.	.	.	.	.	.	.	.	.	.	.	.	.	.	.
.	.	24G\	.	.	.	.	.	.	.	.	.	.	.	.	.	.	.	.	.	.	.	.	.	.	.
.	.	24d-\	.	.	.	.	.	.	.	.	.	.	.	.	.	.	.	.	.	.	.	.	.	.	.
.	.	24B-\	.	.	.	.	.	.	.	.	.	.	.	.	.	.	.	.	.	.	.	.	.	.	.
.	.	24G\JJ	.	.	.	.	.	.	.	.	.	.	.	.	.	.	.	.	.	.	.	.	.	.	.
[4ff\	.	24c\LL	.	4A\	.	2ff/	(4a\	.	[4fn/	[4A\	.	4ee/	4cc\	.	.	.	.	.	.	[4f/	.	2c/	.	(4A/	.
.	.	24A\	.	.	.	.	.	.	.	.	.	.	.	.	.	.	.	.	.	.	.	.	.	.	.
.	.	24Fn\	.	.	.	.	.	.	.	.	.	.	.	.	.	.	.	.	.	.	.	.	.	.	.
.	.	24c\	.	.	.	.	.	.	.	.	.	.	.	.	.	.	.	.	.	.	.	.	.	.	.
.	.	24A\	.	.	.	.	.	.	.	.	.	.	.	.	.	.	.	.	.	.	.	.	.	.	.
.	.	24F\JJ	.	.	.	.	.	.	.	.	.	.	.	.	.	.	.	.	.	.	.	.	.	.	.
(16ff\LL]	.	24c\LL	.	4A\	.	.	4cc\)	.	16f/LL]	16A\LL]	.	4r	4ryy	.	.	.	.	.	.	(16f/LL]	.	.	.	4Fn/)	.
! 32ggP/LLL	!	!	!	!	!	!	!	!	!	!	!	!	!	!	!	!	!	!	!	! 32gP/LLL	!	!	!	!	!
! 32ffP/	!	!	!	!	!	!	!	!	!	!	!	!	!	!	!	!	!	!	!	! 32fP/	!	!	!	!	!
! 32eeP/JJJ	!	!	!	!	!	!	!	!	!	!	!	!	!	!	!	!	!	!	!	! 32eP/JJJ	!	!	!	!	!
16ffp\	.	24A\	.	.	.	.	.	.	(16F/	(16F\	.	.	.	.	.	.	.	.	.	16fp/	.	.	.	.	.
.	.	24F\	.	.	.	.	.	.	.	.	.	.	.	.	.	.	.	.	.	.	.	.	.	.	.
16aa\	.	24c\	.	.	.	.	.	.	16A/	16A\	.	.	.	.	.	.	.	.	.	16a/	.	.	.	.	.
16ccc\JJ)	.	24A\	.	.	.	.	.	.	16c/JJ)	16c\JJ)	.	.	.	.	.	.	.	.	.	16cc/JJ)	.	.	.	.	.
.	.	24F\JJ	.	.	.	.	.	.	.	.	.	.	.	.	.	.	.	.	.	.	.	.	.	.	.
=23	=23	=23	=23	=23	=23	=23	=23	=23	=23	=23	=23	=23	=23	=23	=23	=23	=23	=23	=23	=23	=23	=23	=23	=23	=23
(8.cccz\L	z	24cz\LL	z	2Ez\	z	2ggz/	2bb-\	z	4cz/	4E\	z	(2ddz\	(2g\	z	[2.ccz/	[2.c/	z	4C/	.	(8.ccz\L	z	2gz/	z	4Cz/	z
.	.	24B-\	.	.	.	.	.	.	.	.	.	.	.	.	.	.	.	.	.	.	.	.	.	.	.
.	.	24G\	.	.	.	.	.	.	.	.	.	.	.	.	.	.	.	.	.	.	.	.	.	.	.
.	.	24c\	.	.	.	.	.	.	.	.	.	.	.	.	.	.	.	.	.	.	.	.	.	.	.
32ddd\LL	.	24B-\	.	.	.	.	.	.	.	.	.	.	.	.	.	.	.	.	.	32dd\LL	.	.	.	.	.
32ccc\JJJ)	.	24G\JJ	.	.	.	.	.	.	.	.	.	.	.	.	.	.	.	.	.	32cc\JJJ)	.	.	.	.	.
(4bb-\	.	24c\LL	.	.	.	.	.	.	(4B-/	(4G\	.	.	.	.	.	.	.	4r	.	(4b-\	.	.	.	4c\	.
.	.	24B-\	.	.	.	.	.	.	.	.	.	.	.	.	.	.	.	.	.	.	.	.	.	.	.
.	.	24G\	.	.	.	.	.	.	.	.	.	.	.	.	.	.	.	.	.	.	.	.	.	.	.
.	.	24c\	.	.	.	.	.	.	.	.	.	.	.	.	.	.	.	.	.	.	.	.	.	.	.
.	.	24B-\	.	.	.	.	.	.	.	.	.	.	.	.	.	.	.	.	.	.	.	.	.	.	.
.	.	24G\JJ	.	.	.	.	.	.	.	.	.	.	.	.	.	.	.	.	.	.	.	.	.	.	.
4aa\)	.	24c\LL	.	4F\	.	4aa/	4aa\	.	4A/)	4F\)	.	4ee\)	4cc\)	.	.	.	.	24C/LL	.	4a/)	.	4f/	.	4c\	.
.	.	24A\	.	.	.	.	.	.	.	.	.	.	.	.	.	.	.	24C/	.	.	.	.	.	.	.
.	.	24F\	.	.	.	.	.	.	.	.	.	.	.	.	.	.	.	24C/	.	.	.	.	.	.	.
.	.	24c\	.	.	.	.	.	.	.	.	.	.	.	.	.	.	.	24C/	.	.	.	.	.	.	.
.	.	24A\	.	.	.	.	.	.	.	.	.	.	.	.	.	.	.	24C/	.	.	.	.	.	.	.
.	.	24F\JJ	.	.	.	.	.	.	.	.	.	.	.	.	.	.	.	24C/JJ	.	.	.	.	.	.	.
=24	=24	=24	=24	=24	=24	=24	=24	=24	=24	=24	=24	=24	=24	=24	=24	=24	=24	=24	=24	=24	=24	=24	=24	=24	=24
(8..ccc\L	p	24C\LL	p	2C/	p	(8..ccc/L	(8..aa\L	p	(4A/	(4F\	p	(4ee\xx	(4cc\	p	4cc/]	4c/]	.	4C/xx	p	(8..cc/L	p	(8..a/L	p	2c\	p
.	.	24F\	.	.	.	.	.	.	.	.	.	.	.	.	.	.	.	.	.	.	.	.	.	.	.
.	.	24A\	.	.	.	.	.	.	.	.	.	.	.	.	.	.	.	.	.	.	.	.	.	.	.
.	.	24c\	.	.	.	.	.	.	.	.	.	.	.	.	.	.	.	.	.	.	.	.	.	.	.
.	.	24A\	.	.	.	.	.	.	.	.	.	.	.	.	.	.	.	.	.	.	.	.	.	.	.
32aa\Jkk)	.	24F\JJ	.	.	.	32aa/Jkk)	32ff\Jkk)	.	.	.	.	.	.	.	.	.	.	.	.	32a/Jkk)	.	32f/Jkk)	.	.	.
8gg\	.	24C/LL	.	.	.	8gg/	8ee\	.	4G/)	4E\)	.	8dd\)	8g\)	.	4r	4r	.	4r	.	8g/	.	8e/	.	.	.
.	.	24C/	.	.	.	.	.	.	.	.	.	.	.	.	.	.	.	.	.	.	.	.	.	.	.
.	.	24BBn/	.	.	.	.	.	.	.	.	.	.	.	.	.	.	.	.	.	.	.	.	.	.	.
8r	.	24C/	.	.	.	8r	8ryy	.	.	.	.	8r	8r	.	.	.	.	.	.	8r	.	8r	.	.	.
.	.	24GG/	.	.	.	.	.	.	.	.	.	.	.	.	.	.	.	.	.	.	.	.	.	.	.
.	.	24EE/JJ	.	.	.	.	.	.	.	.	.	.	.	.	.	.	.	.	.	.	.	.	.	.	.
4r	.	8CC/	.	4r	.	4r	4ryy	.	4r	4ryy	.	24g/LL	24G/LL	.	4r	4r	.	4r	.	4r	.	4r	.	4r	.
.	.	.	.	.	.	.	.	.	.	.	.	24g/	24G/	.	.	.	.	.	.	.	.	.	.	.	.
.	.	.	.	.	.	.	.	.	.	.	.	24g/	24G/	.	.	.	.	.	.	.	.	.	.	.	.
.	.	8r	.	.	.	.	.	.	.	.	.	24g/	24G/	.	.	.	.	.	.	.	.	.	.	.	.
.	.	.	.	.	.	.	.	.	.	.	.	24g/	24G/	.	.	.	.	.	.	.	.	.	.	.	.
.	.	.	.	.	.	.	.	.	.	.	.	24g/JJ	24G/JJ	.	.	.	.	.	.	.	.	.	.	.	.
=25	=25	=25	=25	=25	=25	=25	=25	=25	=25	=25	=25	=25	=25	=25	=25	=25	=25	=25	=25	=25	=25	=25	=25	=25	=25
(24g\LL	p	4c\	p	2.r	.	4ee-/	2.r	p]	2.r	2.r	.	4g/	4G/	.	2.r	2.r	.	2.r	.	(24g\LL	p	4e-/	p	4c\	p
24ee-\	.	.	.	.	.	.	.	.	.	.	.	.	.	.	.	.	.	.	.	24ee-\	.	.	.	.	.
24dd\)	.	.	.	.	.	.	.	.	.	.	.	.	.	.	.	.	.	.	.	24dd\)	.	.	.	.	.
(24cc\	.	.	.	.	.	.	.	.	.	.	.	.	.	.	.	.	.	.	.	(24cc\	.	.	.	.	.
24bn\	.	.	.	.	.	.	.	.	.	.	.	.	.	.	.	.	.	.	.	24bn\	.	.	.	.	.
24cc\JJ)	.	.	.	.	.	.	.	.	.	.	.	.	.	.	.	.	.	.	.	24cc\JJ)	.	.	.	.	.
24bz\LL	z	2dz\	z	.	.	2bn/	.	<Z	.	.	.	4r	4ryy	.	.	.	.	.	.	24bz'\LL	z	2fz/	z	2dz\	z
24dd'\	.	.	.	.	.	.	.	.	.	.	.	.	.	.	.	.	.	.	.	24dd'\	.	.	.	.	.
24ff'\	.	.	.	.	.	.	.	.	.	.	.	.	.	.	.	.	.	.	.	24ff'\	.	.	.	.	.
24gg'\	.	.	.	.	.	.	.	.	.	.	.	.	.	.	.	.	.	.	.	24gg'\	.	.	.	.	.
24aa-'\	>	.	.	.	.	.	.	.	.	.	.	.	.	.	.	.	.	.	.	24aa-'\	>	.	.	.	.
24gg'\JJ	.	.	.	.	.	.	.	.	.	.	.	.	.	.	.	.	.	.	.	24gg'\JJ	.	.	.	.	.
24ff'\LL	.	.	.	.	.	.	.	.	.	.	.	4r	4ryy	.	.	.	.	.	.	24ff'\LL	.	.	.	.	.
24ee-'\	.	.	.	.	.	.	.	.	.	.	.	.	.	.	.	.	.	.	.	24ee-'\	.	.	.	.	.
24dd'\	.	.	.	.	.	.	.	.	.	.	.	.	.	.	.	.	.	.	.	24dd'\	.	.	.	.	.
24cc'\	.	.	.	.	.	.	.	.	.	.	.	.	.	.	.	.	.	.	.	24cc'\	.	.	.	.	.
24b'\	.	.	.	.	.	.	.	.	.	.	.	.	.	.	.	.	.	.	.	24b'\	.	.	.	.	.
24dd'\JJ	]	.	.	.	.	.	.	.	.	.	.	.	.	.	.	.	.	.	.	24dd'\JJ	.	.	.	.	.
=26	=26	=26	=26	=26	=26	=26	=26	=26	=26	=26	=26	=26	=26	=26	=26	=26	=26	=26	=26	=26	=26	=26	=26	=26	=26
(24dd\LL	.	2e-\	>]	2.r	.	[2cc/	4r	.	4r	2.r	.	2.r	2.r	.	4r	2ryy	.	4r	.	(24dd\LL	]	2g/	>]	2e-\	>]
24bn\	.	.	.	.	.	.	.	.	.	.	.	.	.	.	.	.	.	.	.	24bn\	.	.	.	.	.
24cc\)	.	.	.	.	.	.	.	.	.	.	.	.	.	.	.	.	.	.	.	24cc\)	.	.	.	.	.
24ee-'\	.	.	.	.	.	.	.	.	.	.	.	.	.	.	.	.	.	.	.	24ee-'\	.	.	.	.	.
24gg'\	.	.	.	.	.	.	.	.	.	.	.	.	.	.	.	.	.	.	.	24gg'\	.	.	.	.	.
24bbn'\JJxx	.	.	.	.	.	.	.	.	.	.	.	.	.	.	.	.	.	.	.	24bbn'\JJ	.	.	.	.	.
(24ccc\LL	.	.	.	.	.	.	4r	.	4r	.	.	.	.	.	4r	.	.	4r	.	(24ccc\LL	.	.	.	.	.
24gg\)	.	.	.	.	.	.	.	.	.	.	.	.	.	.	.	.	.	.	.	24gg\)	.	.	.	.	.
24bb'\	.	.	.	.	.	.	.	.	.	.	.	.	.	.	.	.	.	.	.	24bb'\	.	.	.	.	.
(24ccc\	.	.	.	.	.	.	.	.	.	.	.	.	.	.	.	.	.	.	.	(24ccc\	.	.	.	.	.
24gg\)	.	.	.	.	.	.	.	.	.	.	.	.	.	.	.	.	.	.	.	24gg\)	.	.	.	.	.
24ccc'\JJ	.	.	.	.	.	.	.	.	.	.	.	.	.	.	.	.	.	.	.	24ccc'\JJ	.	.	.	.	.
8eee-'\	.	4r	.	.	.	24cc/LL]	24r	p	24r	.	.	.	.	.	24g/LL	24c/LL	p	24C/LL	p	8eee-'\	.	4r	.	4r	.
.	.	.	.	.	.	24ee-/	24g\LL	.	24c\LL	.	p	.	.	.	24g/	24c/	.	24C/	.	.	.	.	.	.	.
.	.	.	.	.	.	24ee-/	24g\	.	24c\	.	.	.	.	.	24g/	24c/	.	24C/	.	.	.	.	.	.	.
8r	.	.	.	.	.	24ee-/	24g\	.	24c\	.	.	.	.	.	24g/	24c/	.	24C/	.	8r	.	.	.	.	.
.	.	.	.	.	.	24ee-/	24g\	.	24c\	.	.	.	.	.	24g/	24c/	.	24C/	.	.	.	.	.	.	.
.	.	.	.	.	.	24ee-/JJ	24g\JJ	.	24c\JJ	.	.	.	.	.	24g/JJ	24c/JJ	.	24C/JJ	.	.	.	.	.	.	.
=27	=27	=27	=27	=27	=27	=27	=27	=27	=27	=27	=27	=27	=27	=27	=27	=27	=27	=27	=27	=27	=27	=27	=27	=27	=27
24ee'\LL	>f	2.B-\	>f	2.B-\	>f	2.een/	2.g\	>f]	2.d-/	2.d-\	>f]	(2.dd/	(2.dd\	>f]	2g/	2G/	>f	24C/LL	>f	24een'\LL	>f	2.d-/	>f	2.en/ 2.G/	>f
24ddd-'\	.	.	.	.	.	.	.	.	.	.	.	.	.	.	.	.	.	24C/	.	24ddd-'\	.	.	.	.	.
24ccc'\	.	.	.	.	.	.	.	.	.	.	.	.	.	.	.	.	.	24C/	.	24ccc'\	.	.	.	.	.
24bb-'\	.	.	.	.	.	.	.	.	.	.	.	.	.	.	.	.	.	24C/	.	24bb-'\	.	.	.	.	.
24aa-'\	.	.	.	.	.	.	.	.	.	.	.	.	.	.	.	.	.	24C/	.	24aa-'\	.	.	.	.	.
24gg'\JJ	.	.	.	.	.	.	.	.	.	.	.	.	.	.	.	.	.	24C/JJ	.	24gg'\JJ	.	.	.	.	.
(24ff\LL	]	.	.	.	.	.	.	.	.	.	.	.	.	.	.	.	.	24C/LL	]	(24ff\LL	]	.	.	.	.
24ee\	.	.	.	.	.	.	.	.	.	.	.	.	.	.	.	.	.	24C/	.	24ee\	.	.	.	.	.
24gg\)	.	.	.	.	.	.	.	.	.	.	.	.	.	.	.	.	.	24C/	.	24gg\)	.	.	.	.	.
24dd-'\	.	.	.	.	.	.	.	.	.	.	.	.	.	.	.	.	.	24C/	.	24dd-'\	.	.	.	.	.
24cc'\	.	.	.	.	.	.	.	.	.	.	.	.	.	.	.	.	.	24C/	.	24cc'\	.	.	.	.	.
24b-'\JJ	.	.	.	.	.	.	.	.	.	.	.	.	.	.	.	.	.	24C/JJ	.	24b-'\JJ	.	.	.	.	.
24a-'/LL	p	.	.	.	.	.	.	.	.	.	.	.	.	.	4r	4r	]	24C/LL	p	24a-'/LL	p	.	.	.	.
24g'/	.	.	.	.	.	.	.	.	.	.	.	.	.	.	.	.	.	24C/	.	24g'/	.	.	.	.	.
24f'/	.	.	.	.	.	.	.	.	.	.	.	.	.	.	.	.	.	24C/	.	24f'/	.	.	.	.	.
24en'/	.	.	.	.	.	.	.	.	.	.	.	.	.	.	.	.	.	24C/	.	24en'/	.	.	.	.	.
24dd-'/	.	.	.	.	.	.	.	.	.	.	.	.	.	.	.	.	.	24C/	.	24dd-'/	.	.	.	.	.
24e'/JJ	.	.	.	.	.	.	.	.	.	.	.	.	.	.	.	.	.	24C/JJ	.	24e'/JJ	.	.	.	.	.
=28	=28	=28	=28	=28	=28	=28	=28	=28	=28	=28	=28	=28	=28	=28	=28	=28	=28	=28	=28	=28	=28	=28	=28	=28	=28
24f'/LL	.	2.Bn\	]p	2.Bn\	]p	(8ff/L	(8a-\L	p	8A-/	8A-\	p	4cc/)	4cc\)	p	2.r	2.r	.	4FF/	.	24f'/LL	.	2.dn/	]p	2.dn\	]p
24ddn'/	.	.	.	.	.	.	.	.	.	.	.	.	.	.	.	.	.	.	.	24ddn'/	.	.	.	.	.
24f'/	.	.	.	.	.	.	.	.	.	.	.	.	.	.	.	.	.	.	.	24f'/	.	.	.	.	.
24g'/	.	.	.	.	.	8gg/	8g\	.	8r	8ryy	.	.	.	.	.	.	.	.	.	24g'/	.	.	.	.	.
24dd'/	.	.	.	.	.	.	.	.	.	.	.	.	.	.	.	.	.	.	.	24dd'/	.	.	.	.	.
24g'/JJ	.	.	.	.	.	.	.	.	.	.	.	.	.	.	.	.	.	.	.	24g'/JJ	.	.	.	.	.
24a-'/LL	.	.	.	.	.	8aa-/	8f\	.	4r	4ryy	.	4r	4ryy	.	.	.	.	4r	.	24a-'/LL	.	.	.	.	.
24dd'/	.	.	.	.	.	.	.	.	.	.	.	.	.	.	.	.	.	.	.	24dd'/	.	.	.	.	.
24a-'/	.	.	.	.	.	.	.	.	.	.	.	.	.	.	.	.	.	.	.	24a-'/	.	.	.	.	.
24g'/	.	.	.	.	.	8gg/)	8g\)	.	.	.	.	.	.	.	.	.	.	.	.	24g'/	.	.	.	.	.
24dd'/	.	.	.	.	.	.	.	.	.	.	.	.	.	.	.	.	.	.	.	24dd'/	.	.	.	.	.
24g'/JJxx	<	.	.	.	.	.	.	.	.	.	.	.	.	.	.	.	.	.	.	24g'/JJ	.	.	.	.	.
(24f/LL	.	.	.	.	.	8ff/	8a-\	<	4r	4ryy	.	4r	4ryy	.	.	.	.	4r	.	(24f/LL	<	.	.	.	.
24a-/)	.	.	.	.	.	.	.	.	.	.	.	.	.	.	.	.	.	.	.	24a-/)	.	.	.	.	.
24dd'/	.	.	.	.	.	.	.	.	.	.	.	.	.	.	.	.	.	.	.	24dd'/	.	.	.	.	.
(24f/	.	.	.	.	.	8ff/J	8g\J	.	.	.	.	.	.	.	.	.	.	.	.	(24f/	.	.	.	.	.
24g/)	.	.	.	.	.	.	.	.	.	.	.	.	.	.	.	.	.	.	.	24g/)	.	.	.	.	.
24dd'/JJ	.	.	.	.	.	.	.	.	.	.	.	.	.	.	.	.	.	.	.	24dd'/JJ	.	.	.	.	.
=29	=29	=29	=29	=29	=29	=29	=29	=29	=29	=29	=29	=29	=29	=29	=29	=29	=29	=29	=29	=29	=29	=29	=29	=29	=29
(24en/LLxx	]f	8c\L	<]f	8c\L	<]f	8een/L	8g\L	]f	8g/L	8en\L	f	8dd/L	8g\L	f	8gg/L	8ee\L	f	4C/	f	(24en/LL	]f	(24en/LL	<]f	8c/L	<]f
24g/)	.	.	.	.	.	.	.	.	.	.	.	.	.	.	.	.	.	.	.	24g/)	.	24g/)	.	.	.
24cc'/	.	.	.	.	.	.	.	.	.	.	.	.	.	.	.	.	.	.	.	24cc'/	.	24cc'/	.	.	.
(24an/	.	8F\J	.	8F\J	.	(24dd/L	8an\J	.	8f/J	8d\J	.	8ee/J	8cc\J	.	8ff/J	8dd\J	.	.	.	(24an/	.	(24a/	.	8F/J	.
24dd/)	.	.	.	.	.	24ff/	.	.	.	.	.	.	.	.	.	.	.	.	.	24dd/)	.	24f/)	.	.	.
24ff'/JJ	.	.	.	.	.	24aa/JJ)	.	.	.	.	.	.	.	.	.	.	.	.	.	24ff'/JJ	.	24d'/JJ	.	.	.
(24g\LL	.	4G\	.	4G\	.	(4cc/	(4e\	.	(4e/	(4c\	.	2ryy	2dd\	.	(4ee/	(4cc\	.	4r	.	(24g\LL	.	4e/ 4c/	.	4G/	.
24cc\	.	.	.	.	.	.	.	.	.	.	.	.	.	.	.	.	.	.	.	24cc\	.	.	.	.	.
24ee\)	.	.	.	.	.	.	.	.	.	.	.	.	.	.	.	.	.	.	.	24ee\)	.	.	.	.	.
24gg'\	.	.	.	.	.	.	.	.	.	.	.	.	.	.	.	.	.	.	.	24gg'\	.	.	.	.	.
24gg'\	.	.	.	.	.	.	.	.	.	.	.	.	.	.	.	.	.	.	.	24gg'\	.	.	.	.	.
24gg'\JJ	.	.	.	.	.	.	.	.	.	.	.	.	.	.	.	.	.	.	.	24gg'\JJ	.	.	.	.	.
(24gg\LL	>	4GG/	.	4GG/	.	4bn/)	4f\)	.	4d/)	4Bn\)	.	.	.	.	4dd/)	4g\)	.	4r	.	(24gg\LLxx	>	4dn/ 4B/	.	(8..F/L	.
24ff#\	.	.	.	.	.	.	.	.	.	.	.	.	.	.	.	.	.	.	.	24ff#\	.	.	.	.	.
24ffn\)	.	.	.	.	.	.	.	.	.	.	.	.	.	.	.	.	.	.	.	24ffn\)	.	.	.	.	.
(24ee\	.	.	.	.	.	.	.	.	.	.	.	.	.	.	.	.	.	.	.	(24ee\	.	.	.	.	.
24ff\)	.	.	.	.	.	.	.	.	.	.	.	.	.	.	.	.	.	.	.	24ff\)	.	.	.	.	.
24bn'\JJ	]	.	.	.	.	.	.	.	.	.	.	.	.	.	.	.	.	.	.	24bn'\JJ	]	.	.	32D/Jkk)	.
=30	=30	=30	=30	=30	=30	=30	=30	=30	=30	=30	=30	=30	=30	=30	=30	=30	=30	=30	=30	=30	=30	=30	=30	=30	=30
(8dd\L	p	24C\LL	p	8C/	p	(8dd/L	4e\	p	4c/	4c\	p	4dd/	4g\	p	4cc/	4e\	p	4C/	p	(8dd\L	p	(2e/ (2G/	p	[2.C/	p
.	.	24E\	.	.	.	.	.	.	.	.	.	.	.	.	.	.	.	.	.	.	.	.	.	.	.
.	.	24G\	.	.	.	.	.	.	.	.	.	.	.	.	.	.	.	.	.	.	.	.	.	.	.
8cc\J)	.	24C\	.	8r	.	8cc/J)	.	.	.	.	.	.	.	.	.	.	.	.	.	8cc\J)	.	.	.	.	.
.	.	24E\	.	.	.	.	.	.	.	.	.	.	.	.	.	.	.	.	.	.	.	.	.	.	.
.	.	24G\JJ	.	.	.	.	.	.	.	.	.	.	.	.	.	.	.	.	.	.	.	.	.	.	.
24r	.	24C\LL	.	8C/	.	4r	4ryy	.	4r	4ryy	.	4r	4ryy	.	4r	4ryy	.	4r	.	24r	.	.	.	.	.
24eee'\LL	.	24E\	.	.	.	.	.	.	.	.	.	.	.	.	.	.	.	.	.	24eee'\LL	.	.	.	.	.
24ddd'\	.	24G\	.	.	.	.	.	.	.	.	.	.	.	.	.	.	.	.	.	24ddd'\	.	.	.	.	.
24ccc'\	.	24C\	.	8r	.	.	.	.	.	.	.	.	.	.	.	.	.	.	.	24ccc'\	.	.	.	.	.
24bbn'\	.	24E\	.	.	.	.	.	.	.	.	.	.	.	.	.	.	.	.	.	24bbn'\	.	.	.	.	.
24aa'\JJ	.	24G\JJ	.	.	.	.	.	.	.	.	.	.	.	.	.	.	.	.	.	24aa'\JJ	.	.	.	.	.
*	*	*	*	*	*	*	*	*	*clefF4	*	*	*	*	*	*	*	*	*	*	*	*	*	*	*	*
(24gg\LL	.	24C\LL	.	8C/	.	(4ff/	(4bn\	.	(8..Bn/L	4r	.	4r	4ryy	.	(4dd/	4r	.	24C/LL	.	(24gg\LL	.	4f/ 4A-/)	.	.	.
24ff\)	.	24F\	.	.	.	.	.	.	.	.	.	.	.	.	.	.	.	24C/	.	24ff\)	.	.	.	.	.
24dd'\	.	24A-\	.	.	.	.	.	.	.	.	.	.	.	.	.	.	.	24C/	.	24dd'\	.	.	.	.	.
(24ff\	.	24C\	.	8r	.	.	.	.	.	.	.	.	.	.	.	.	.	24C/	.	(24ff\	.	.	.	.	.
24dd\)	.	24F\	.	.	.	.	.	.	.	.	.	.	.	.	.	.	.	24C/	.	24dd\)	.	.	.	.	.
24bn'\JJ	.	24A-\JJ	.	.	.	.	.	.	32d/Jkk)	.	.	.	.	.	.	.	.	24C/JJ	.	24bn'\JJ	.	.	.	.	.
=31	=31	=31	=31	=31	=31	=31	=31	=31	=31	=31	=31	=31	=31	=31	=31	=31	=31	=31	=31	=31	=31	=31	=31	=31	=31
(24bn\LL	.	24C\LL	.	8C/	.	4ee/)	4cc\)	.	4c/	2.r	.	[2.g/	[2.G\	pp	4cc/)	[2.c\	.	4C/	.	(24bn\LL	.	(2e/ 2G/	.	2.C/_	pp
24cc\)	.	24E\	.	.	.	.	.	.	.	.	.	.	.	.	.	.	.	.	.	24cc\)	.	.	.	.	.
24ee'\	.	24G\	.	.	.	.	.	.	.	.	.	.	.	.	.	.	.	.	.	24ee'\	.	.	.	.	.
(24gg\	.	24E\	.	8r	.	.	.	.	.	.	.	.	.	.	.	.	.	.	.	(24gg\	.	.	.	.	.
24bbn\)	.	24C\	.	.	.	.	.	.	.	.	.	.	.	.	.	.	.	.	.	24bbn\)	.	.	.	.	.
24ccc'\JJ	.	24G\JJ	.	.	.	.	.	.	.	.	.	.	.	.	.	.	.	.	.	24ccc'\JJ	.	.	.	.	.
24eee'\LL	.	24C\LL	.	8C/	.	4r	4ryy	.	4r	.	.	.	.	.	4r	.	.	4r	.	24eee'\LL	.	.	.	.	.
24ddd'\	.	24E\	.	.	.	.	.	.	.	.	.	.	.	.	.	.	.	.	.	24ddd'\	.	.	.	.	.
24ccc'\	.	24G\	.	.	.	.	.	.	.	.	.	.	.	.	.	.	.	.	.	24ccc'\	.	.	.	.	.
24bb'\	.	24C\	.	8r	.	.	.	.	.	.	.	.	.	.	.	.	.	.	.	24bb'\	.	.	.	.	.
24aa'\	.	24E\	.	.	.	.	.	.	.	.	.	.	.	.	.	.	.	.	.	24aa'\	.	.	.	.	.
24gg'\JJ	.	24G\JJ	.	.	.	.	.	.	.	.	.	.	.	.	.	.	.	.	.	24gg'\JJ	.	.	.	.	.
(24ff\LL	pp	24C\LL	pp	8C/	pp	4ff/	4bn\	pp	(8..Bn/L	.	pp	.	.	.	4dd/	.	pp	24C/LL	pp	(24ff\LL	pp	4f/) 4A-/)	pp	.	.
24dd\)	.	24F\	.	.	.	.	.	.	.	.	.	.	.	.	.	.	.	24C/	.	24dd\)	.	.	.	.	.
24b'\	.	24A-\	.	.	.	.	.	.	.	.	.	.	.	.	.	.	.	24C/	.	24b'\	.	.	.	.	.
(24aa-\	.	24C\	.	8r	.	.	.	.	.	.	.	.	.	.	.	.	.	24C/	.	(24aa-\	.	.	.	.	.
24ff\)	.	24F\	.	.	.	.	.	.	.	.	.	.	.	.	.	.	.	24C/	.	24ff\)	.	.	.	.	.
24b'\JJ	.	24A-\JJ	.	.	.	.	.	.	32d/Jkk)	.	.	.	.	.	.	.	.	24C/JJ	.	24b'\JJ	.	.	.	.	.
=32	=32	=32	=32	=32	=32	=32	=32	=32	=32	=32	=32	=32	=32	=32	=32	=32	=32	=32	=32	=32	=32	=32	=32	=32	=32
(4bn\	.	(4A-\	.	4.C/	.	(4ff/	(4bn\	.	(4d/	2.r	.	4g/_	4G\_	.	(4dd/	4c\_	.	4C/	.	(4bn\	.	(4f/	.	4.C/]	.
8cc\)	.	8G\)	.	.	.	8ee/)	8cc\)	.	8c/)	.	.	8g/]	8G\]	.	8ee/)	8c\]	.	4r	.	8cc\)	.	8e/)	.	.	.
8r	.	8r	.	8r	.	8r	8ryy	.	8r	.	.	8r	8ryy	.	8r	8ryy	.	.	.	8r	.	8r	.	8r	.
4r	.	4r	.	4r	.	4r	4ryy	.	4r	.	.	4r	4ryy	.	4r	4ryy	.	4r	.	4r	.	4r	.	4r	.
=33	=33	=33	=33	=33	=33	=33	=33	=33	=33	=33	=33	=33	=33	=33	=33	=33	=33	=33	=33	=33	=33	=33	=33	=33	=33
2.r	.	2A-\	p	2A-\	p	2.r	2.r	.	2.r	2.r	.	2.r	2.r	.	2.r	2.r	.	2.r	.	8a-/L	p	2c/	p	2e-\	p
!	!	!	!	!	!	!	!	!	!	!	!	!	!	!	!	!	!	!	!	! (32b-P/LLL	!	!	!	!	!
!	!	!	!	!	!	!	!	!	!	!	!	!	!	!	!	!	!	!	!	! 32a-P/	!	!	!	!	!
!	!	!	!	!	!	!	!	!	!	!	!	!	!	!	!	!	!	!	!	! 32gP/JJJ	!	!	!	!	!
.	.	.	.	.	.	.	.	.	.	.	.	.	.	.	.	.	.	.	.	16.a-p/L)	.	.	.	.	.
.	.	.	.	.	.	.	.	.	.	.	.	.	.	.	.	.	.	.	.	32cc/JJk	.	.	.	.	.
.	.	.	.	.	.	.	.	.	.	.	.	.	.	.	.	.	.	.	.	(8..ee-\L	.	.	.	.	.
.	.	.	.	.	.	.	.	.	.	.	.	.	.	.	.	.	.	.	.	32cc\Jkk)	.	.	.	.	.
.	.	4A-z\	z	4A-z\	z	.	.	.	.	.	.	.	.	.	.	.	.	.	.	(8..ffz\L	z	4c-z/	z	(8..dnz\L	z
.	.	.	.	.	.	.	.	.	.	.	.	.	.	.	.	.	.	.	.	32ddn\Jkk)	.	.	.	32f\Jkk)	.
=34	=34	=34	=34	=34	=34	=34	=34	=34	=34	=34	=34	=34	=34	=34	=34	=34	=34	=34	=34	=34	=34	=34	=34	=34	=34
2.r	.	2G\	p	2G\	p	2.r	2.r	.	2.r	2.r	.	2.r	2.r	.	2.r	2.r	.	2.r	.	(24ee-\LL	p	[4B-/	p	2.e-\	p
!	!	!	!	!	!	!	!	!	!	!	!	!	!	!	!	!	!	!	!	! 32ffP/LLL	!	!	!	!	!
!	!	!	!	!	!	!	!	!	!	!	!	!	!	!	!	!	!	!	!	! 32ee-P/	!	!	!	!	!
!	!	!	!	!	!	!	!	!	!	!	!	!	!	!	!	!	!	!	!	! 32ddP/JJJ	!	!	!	!	!
.	.	.	.	.	.	.	.	.	.	.	.	.	.	.	.	.	.	.	.	24ee-p\	.	.	.	.	.
.	.	.	.	.	.	.	.	.	.	.	.	.	.	.	.	.	.	.	.	24gg\)	.	.	.	.	.
.	.	.	.	.	.	.	.	.	.	.	.	.	.	.	.	.	.	.	.	(24bb-\	.	.	.	.	.
.	.	.	.	.	.	.	.	.	.	.	.	.	.	.	.	.	.	.	.	24gg\	.	.	.	.	.
.	.	.	.	.	.	.	.	.	.	.	.	.	.	.	.	.	.	.	.	24ee-\JJ)	.	.	.	.	.
.	.	.	.	.	.	.	.	.	.	.	.	.	.	.	.	.	.	.	.	(4dd-\	.	24B-/LL]	.	.	.
.	.	.	.	.	.	.	.	.	.	.	.	.	.	.	.	.	.	.	.	.	.	(24B-/	.	.	.
.	.	.	.	.	.	.	.	.	.	.	.	.	.	.	.	.	.	.	.	.	.	24d-/)	.	.	.
.	.	.	.	.	.	.	.	.	.	.	.	.	.	.	.	.	.	.	.	.	.	(24f/	.	.	.
.	.	.	.	.	.	.	.	.	.	.	.	.	.	.	.	.	.	.	.	.	.	24d-/	.	.	.
.	.	.	.	.	.	.	.	.	.	.	.	.	.	.	.	.	.	.	.	.	.	24B-/JJ)	.	.	.
.	.	4A-\	.	4A-\	.	.	.	.	.	.	.	.	.	.	.	.	.	.	.	4cc\)	.	(24A-/LL	.	.	.
.	.	.	.	.	.	.	.	.	.	.	.	.	.	.	.	.	.	.	.	.	.	24cn/	.	.	.
.	.	.	.	.	.	.	.	.	.	.	.	.	.	.	.	.	.	.	.	.	.	24f/)	.	.	.
.	.	.	.	.	.	.	.	.	.	.	.	.	.	.	.	.	.	.	.	.	.	(24e-/	.	.	.
.	.	.	.	.	.	.	.	.	.	.	.	.	.	.	.	.	.	.	.	.	.	24c/	.	.	.
.	.	.	.	.	.	.	.	.	.	.	.	.	.	.	.	.	.	.	.	.	.	24A-/JJ)	.	.	.
=35	=35	=35	=35	=35	=35	=35	=35	=35	=35	=35	=35	=35	=35	=35	=35	=35	=35	=35	=35	=35	=35	=35	=35	=35	=35
2.r	.	4D-\	.	4D-\	.	2.r	2.r	.	2.r	2.r	.	2.r	2.r	.	2.r	2.r	.	2.r	.	(24b-\LL	.	4f/	.	4f\	.
!	!	!	!	!	!	!	!	!	!	!	!	!	!	!	!	!	!	!	!	! 32ccP/LLL	!	!	!	!	!
!	!	!	!	!	!	!	!	!	!	!	!	!	!	!	!	!	!	!	!	! 32b-P/	!	!	!	!	!
!	!	!	!	!	!	!	!	!	!	!	!	!	!	!	!	!	!	!	!	! 32anP/JJJ	!	!	!	!	!
.	.	.	.	.	.	.	.	.	.	.	.	.	.	.	.	.	.	.	.	24b-p\	.	.	.	.	.
.	.	.	.	.	.	.	.	.	.	.	.	.	.	.	.	.	.	.	.	24gg-\)	.	.	.	.	.
.	.	.	.	.	.	.	.	.	.	.	.	.	.	.	.	.	.	.	.	(24ff\	.	.	.	.	.
.	.	.	.	.	.	.	.	.	.	.	.	.	.	.	.	.	.	.	.	24dd-\	.	.	.	.	.
.	.	.	.	.	.	.	.	.	.	.	.	.	.	.	.	.	.	.	.	24b-\JJ)	.	.	.	.	.
.	.	4E-\	.	4E-\	.	.	.	.	.	.	.	.	.	.	.	.	.	.	.	(24a-/LL	.	4c/	.	4a-\	.
.	.	.	.	.	.	.	.	.	.	.	.	.	.	.	.	.	.	.	.	24e-/	.	.	.	.	.
.	.	.	.	.	.	.	.	.	.	.	.	.	.	.	.	.	.	.	.	24cc/J)	.	.	.	.	.
.	.	.	.	.	.	.	.	.	.	.	.	.	.	.	.	.	.	.	.	[8ee-/J	.	.	.	.	.
.	.	4E-\	.	4EE-/	.	.	.	.	.	.	.	.	.	.	.	.	.	.	.	(24ee-\LL]	.	(8..d-/L	.	4g\	.
.	.	.	.	.	.	.	.	.	.	.	.	.	.	.	.	.	.	.	.	24dd-\	.	.	.	.	.
.	.	.	.	.	.	.	.	.	.	.	.	.	.	.	.	.	.	.	.	24ff\)	.	.	.	.	.
.	.	.	.	.	.	.	.	.	.	.	.	.	.	.	.	.	.	.	.	(24dd-\	.	.	.	.	.
.	.	.	.	.	.	.	.	.	.	.	.	.	.	.	.	.	.	.	.	24b-\	.	.	.	.	.
.	.	.	.	.	.	.	.	.	.	.	.	.	.	.	.	.	.	.	.	24gn\JJ)	.	32B-/Jkk)	.	.	.
=36	=36	=36	=36	=36	=36	=36	=36	=36	=36	=36	=36	=36	=36	=36	=36	=36	=36	=36	=36	=36	=36	=36	=36	=36	=36
2.ccc\	p	2.A-\	.	8AA-/	.	[2.aa-/	[2.ee-\	p	2.r	2.r	.	2.r	2.r	.	2.r	2.r	.	2.r	.	(8b-/L	.	24A-/LL	.	2.e-\ 2.c\	.
.	.	.	.	.	.	.	.	.	.	.	.	.	.	.	.	.	.	.	.	.	.	24c/	.	.	.
.	.	.	.	.	.	.	.	.	.	.	.	.	.	.	.	.	.	.	.	.	.	24e-/	.	.	.
.	.	.	.	8r	.	.	.	.	.	.	.	.	.	.	.	.	.	.	.	8a-/J)	.	24A-/	.	.	.
.	.	.	.	.	.	.	.	.	.	.	.	.	.	.	.	.	.	.	.	.	.	24c/	.	.	.
.	.	.	.	.	.	.	.	.	.	.	.	.	.	.	.	.	.	.	.	.	.	24e-/JJ	.	.	.
.	.	.	.	8AA-/	.	.	.	.	.	.	.	.	.	.	.	.	.	.	.	24r	.	24A-/LL	.	.	.
.	.	.	.	.	.	.	.	.	.	.	.	.	.	.	.	.	.	.	.	24eee-'\LL	.	24c/	.	.	.
.	.	.	.	.	.	.	.	.	.	.	.	.	.	.	.	.	.	.	.	24ddd-'\	.	24e-/	.	.	.
.	.	.	.	8r	.	.	.	.	.	.	.	.	.	.	.	.	.	.	.	24ccc'\	.	24A-/	.	.	.
.	.	.	.	.	.	.	.	.	.	.	.	.	.	.	.	.	.	.	.	24bb-'\	.	24c/	.	.	.
.	.	.	.	.	.	.	.	.	.	.	.	.	.	.	.	.	.	.	.	24aa-'\JJ	.	24e-/JJ	.	.	.
.	.	.	.	8AA-/	.	.	.	.	.	.	.	.	.	.	.	.	.	.	.	24gg'\LL	.	24A-/LL	.	.	.
.	.	.	.	.	.	.	.	.	.	.	.	.	.	.	.	.	.	.	.	24ff'\	.	24c/	.	.	.
.	.	.	.	.	.	.	.	.	.	.	.	.	.	.	.	.	.	.	.	24ee-'\	.	24e-/	.	.	.
.	.	.	.	8r	.	.	.	.	.	.	.	.	.	.	.	.	.	.	.	24dd-'\	.	24A-/	.	.	.
.	.	.	.	.	.	.	.	.	.	.	.	.	.	.	.	.	.	.	.	24cc'\	.	24c/	.	.	.
.	.	.	.	.	.	.	.	.	.	.	.	.	.	.	.	.	.	.	.	24b-'\JJ	.	24e-/JJ	.	.	.
=37	=37	=37	=37	=37	=37	=37	=37	=37	=37	=37	=37	=37	=37	=37	=37	=37	=37	=37	=37	=37	=37	=37	=37	=37	=37
(2.ddd-\	<	2B-\	.	8BB-/	.	(8aa-/L]	2ee-\]	.	2.r	2.r	.	2.r	2.r	.	2.r	2.r	.	2.r	.	(8a-/L	.	24B-/LL	.	2e-/ 2G/	.
.	.	.	.	.	.	.	.	.	.	.	.	.	.	.	.	.	.	.	.	.	.	24d-/	.	.	.
.	.	.	.	.	.	.	.	.	.	.	.	.	.	.	.	.	.	.	.	.	.	24e-/	.	.	.
.	.	.	.	8r	.	8gg/J)	.	.	.	.	.	.	.	.	.	.	.	.	.	8g/J)	.	24B-/	.	.	.
.	.	.	.	.	.	.	.	.	.	.	.	.	.	.	.	.	.	.	.	.	.	24d-/	.	.	.
.	.	.	.	.	.	.	.	.	.	.	.	.	.	.	.	.	.	.	.	.	.	24e-/JJ	.	.	.
.	.	.	.	8BB-/	.	[2gg/	.	<	.	.	.	.	.	.	.	.	.	.	.	24r	.	24B-/LL	.	.	.
.	.	.	.	.	.	.	.	.	.	.	.	.	.	.	.	.	.	.	.	24eee-'\LL	.	24d-/	.	.	.
.	.	.	.	.	.	.	.	.	.	.	.	.	.	.	.	.	.	.	.	24ddd-'\	.	24g/	.	.	.
.	.	.	.	8r	.	.	.	.	.	.	.	.	.	.	.	.	.	.	.	24ccc'\	.	24b-/	.	.	.
.	.	.	.	.	.	.	.	.	.	.	.	.	.	.	.	.	.	.	.	24bb-'\	.	24dd-/	.	.	.
.	.	.	.	.	.	.	.	.	.	.	.	.	.	.	.	.	.	.	.	24aa-'\JJ	.	24cc/JJ	.	.	.
.	.	4G\	<	8BB-/	<	.	[4ee\	.	.	.	.	.	.	.	.	.	.	.	.	(24gg\LL	<	(24b-/LL	<	4en\	<
.	.	.	.	.	.	.	.	.	.	.	.	.	.	.	.	.	.	.	.	24ff\)	.	24a-/)	.	.	.
.	.	.	.	.	.	.	.	.	.	.	.	.	.	.	.	.	.	.	.	24een'\	.	24g'/	.	.	.
.	.	.	.	8r	.	.	.	.	.	.	.	.	.	.	.	.	.	.	.	24ee'\	.	24g'/	.	.	.
.	.	.	.	.	.	.	.	.	.	.	.	.	.	.	.	.	.	.	.	24ee'\	.	24g'/	.	.	.
.	.	.	.	.	.	.	.	.	.	.	.	.	.	.	.	.	.	.	.	24ee'\JJ	.	24g'/JJ	.	.	.
=38	=38	=38	=38	=38	=38	=38	=38	=38	=38	=38	=38	=38	=38	=38	=38	=38	=38	=38	=38	=38	=38	=38	=38	=38	=38
*	*	*	*	*	*	*	*	*	*	*	*	*	*	*	*	*	*	*	*	*	*	*	*	*^	*
&(4ccc#\)	]sf	(4C#/	]sf	2AAn/	]sf	(4gg/]	(4ee\]	]sf	(4enz/	(4c#\	z	2.r	2.r	.	2.r	2.r	.	2.r	.	(4ee\	]sf	24An'/LL	]sf	(4g/	(4c#\	]sf
.	.	.	.	.	.	.	.	.	.	.	.	.	.	.	.	.	.	.	.	.	.	24c#'/	.	.	.	.
.	.	.	.	.	.	.	.	.	.	.	.	.	.	.	.	.	.	.	.	.	.	24en'/	.	.	.	.
.	.	.	.	.	.	.	.	.	.	.	.	.	.	.	.	.	.	.	.	.	.	24g'/	.	.	.	.
.	.	.	.	.	.	.	.	.	.	.	.	.	.	.	.	.	.	.	.	.	.	24e'/	.	.	.	.
.	.	.	.	.	.	.	.	.	.	.	.	.	.	.	.	.	.	.	.	.	.	24c#'/JJ	.	.	.	.
4dddn\&)	.	4AAn/)	.	.	.	4ff/)	4dd\)	.	4f/)	4d\)	.	.	.	.	.	.	.	.	.	8ff\)	.	24A/LL	.	4f/)	4d\)	.
.	.	.	.	.	.	.	.	.	.	.	.	.	.	.	.	.	.	.	.	.	.	24dn/	.	.	.	.
.	.	.	.	.	.	.	.	.	.	.	.	.	.	.	.	.	.	.	.	.	.	24f/	.	.	.	.
.	.	.	.	.	.	.	.	.	.	.	.	.	.	.	.	.	.	.	.	8r	.	24A/	.	.	.	.
.	.	.	.	.	.	.	.	.	.	.	.	.	.	.	.	.	.	.	.	.	.	24d/	.	.	.	.
.	.	.	.	.	.	.	.	.	.	.	.	.	.	.	.	.	.	.	.	.	.	24f/JJ	.	.	.	.
4cccn\	p	4AA-/	p	4AA-/	p	4ff/	4dd\	p	4f/	4d\	p	.	.	.	.	.	.	.	.	24r	.	24A-/LL	p	4f/	4d\	p
.	.	.	.	.	.	.	.	.	.	.	.	.	.	.	.	.	.	.	.	24ff'\LL	p	24d/	.	.	.	.
.	.	.	.	.	.	.	.	.	.	.	.	.	.	.	.	.	.	.	.	24ff'\	.	24f/	.	.	.	.
.	.	.	.	.	.	.	.	.	.	.	.	.	.	.	.	.	.	.	.	(24ff\	.	24A-/	.	.	.	.
.	.	.	.	.	.	.	.	.	.	.	.	.	.	.	.	.	.	.	.	24ccc\)	.	24d/	.	.	.	.
.	.	.	.	.	.	.	.	.	.	.	.	.	.	.	.	.	.	.	.	24ccc'\JJ	.	24f/JJ	.	.	.	.
=39	=39	=39	=39	=39	=39	=39	=39	=39	=39	=39	=39	=39	=39	=39	=39	=39	=39	=39	=39	=39	=39	=39	=39	=39	=39	=39
2.bbn\	.	2.GG/	.	2.GG/	.	2.ff/	2.dd\	.	2.f/	2.Bn\	.	2.r	2.r	.	2.dd/	2.g\	p	2.r	.	(24ccc\LL	.	24G/LL	.	2.f/	2.Bn\	.
.	.	.	.	.	.	.	.	.	.	.	.	.	.	.	.	.	.	.	.	24bbn\	.	24d/	.	.	.	.
.	.	.	.	.	.	.	.	.	.	.	.	.	.	.	.	.	.	.	.	24ddd\J)	.	24f/	.	.	.	.
.	.	.	.	.	.	.	.	.	.	.	.	.	.	.	.	.	.	.	.	[8aa-\J	.	24G/	.	.	.	.
.	.	.	.	.	.	.	.	.	.	.	.	.	.	.	.	.	.	.	.	.	.	24d/	.	.	.	.
.	.	.	.	.	.	.	.	.	.	.	.	.	.	.	.	.	.	.	.	.	.	24f/JJ	.	.	.	.
.	.	.	.	.	.	.	.	.	.	.	.	.	.	.	.	.	.	.	.	24aa-\LL]	.	24G/LL	.	.	.	.
.	.	.	.	.	.	.	.	.	.	.	.	.	.	.	.	.	.	.	.	24gg'\	.	24d/	.	.	.	.
.	.	.	.	.	.	.	.	.	.	.	.	.	.	.	.	.	.	.	.	24ff'\	.	24f/	.	.	.	.
.	.	.	.	.	.	.	.	.	.	.	.	.	.	.	.	.	.	.	.	24ee-'\	.	24G/	.	.	.	.
.	.	.	.	.	.	.	.	.	.	.	.	.	.	.	.	.	.	.	.	24dd'\	.	24d/	.	.	.	.
.	.	.	.	.	.	.	.	.	.	.	.	.	.	.	.	.	.	.	.	24cc'\JJ	.	24f/JJ	.	.	.	.
.	.	.	.	.	.	.	.	.	.	.	.	.	.	.	.	.	.	.	.	(24cc\LL	.	24G/LL	.	.	.	.
.	.	.	.	.	.	.	.	.	.	.	.	.	.	.	.	.	.	.	.	24bn\)	.	24d/	.	.	.	.
.	.	.	.	.	.	.	.	.	.	.	.	.	.	.	.	.	.	.	.	24dd'\	.	24f/	.	.	.	.
.	.	.	.	.	.	.	.	.	.	.	.	.	.	.	.	.	.	.	.	(24ff\	.	24G/	.	.	.	.
.	.	.	.	.	.	.	.	.	.	.	.	.	.	.	.	.	.	.	.	24aa-\)	.	24d/	.	.	.	.
.	.	.	.	.	.	.	.	.	.	.	.	.	.	.	.	.	.	.	.	24b'\JJ	.	24f/JJ	.	.	.	.
=40	=40	=40	=40	=40	=40	=40	=40	=40	=40	=40	=40	=40	=40	=40	=40	=40	=40	=40	=40	=40	=40	=40	=40	=40	=40	=40
2.ccc\	.	[2.G\	.	8GG/	.	2.ee-/	2.cc\	.	2.e-\	2.c\	.	2.r	2.r	.	2.cc/	2.G\	.	2.r	.	(24dd\LL	.	24G/LL	.	2.e-/	2.c\	.
.	.	.	.	.	.	.	.	.	.	.	.	.	.	.	.	.	.	.	.	24cc\)	.	24c/	.	.	.	.
.	.	.	.	.	.	.	.	.	.	.	.	.	.	.	.	.	.	.	.	24cc'\J	.	24e-/	.	.	.	.
.	.	.	.	8r	.	.	.	.	.	.	.	.	.	.	.	.	.	.	.	8cc\J	.	24G/	.	.	.	.
.	.	.	.	.	.	.	.	.	.	.	.	.	.	.	.	.	.	.	.	.	.	24c/	.	.	.	.
.	.	.	.	.	.	.	.	.	.	.	.	.	.	.	.	.	.	.	.	.	.	24e-/JJ	.	.	.	.
.	.	.	.	8GG/	.	.	.	.	.	.	.	.	.	.	.	.	.	.	.	24r	.	24G/LL	.	.	.	.
.	.	.	.	.	.	.	.	.	.	.	.	.	.	.	.	.	.	.	.	24gg'\LL	.	24c/	.	.	.	.
.	.	.	.	.	.	.	.	.	.	.	.	.	.	.	.	.	.	.	.	24ff'\	.	24e-/	.	.	.	.
.	.	.	.	8r	.	.	.	.	.	.	.	.	.	.	.	.	.	.	.	24ee-'\	.	24G/	.	.	.	.
.	.	.	.	.	.	.	.	.	.	.	.	.	.	.	.	.	.	.	.	24dd'\	.	24c/	.	.	.	.
.	.	.	.	.	.	.	.	.	.	.	.	.	.	.	.	.	.	.	.	24cc'\JJ	.	24e-/JJ	.	.	.	.
.	.	.	.	8GG/	.	.	.	.	.	.	.	.	.	.	.	.	.	.	.	24ccc'\LL	.	24G/LL	.	.	.	.
.	.	.	.	.	.	.	.	.	.	.	.	.	.	.	.	.	.	.	.	24gg'\	.	24c/	.	.	.	.
.	.	.	.	.	.	.	.	.	.	.	.	.	.	.	.	.	.	.	.	24ff'\	.	24e-/	.	.	.	.
.	.	.	.	8r	.	.	.	.	.	.	.	.	.	.	.	.	.	.	.	24ee-'\	.	24G/	.	.	.	.
.	.	.	.	.	.	.	.	.	.	.	.	.	.	.	.	.	.	.	.	24dd'\	.	24c/	.	.	.	.
.	.	.	.	.	.	.	.	.	.	.	.	.	.	.	.	.	.	.	.	24cc'\JJ	.	24e-/JJ	.	.	.	.
=41	=41	=41	=41	=41	=41	=41	=41	=41	=41	=41	=41	=41	=41	=41	=41	=41	=41	=41	=41	=41	=41	=41	=41	=41	=41	=41
2.bb-\	.	2.G\]	.	8G\	.	2.een/	2dd-\	.	2.en\	2.B-\	.	2.r	2.r	.	2.ee/	2.G/	.	2.r	.	(24cc\LL	.	24G/LL	.	2.en/	2.d-\	.
.	.	.	.	.	.	.	.	.	.	.	.	.	.	.	.	.	.	.	.	24b-\)	.	24d-/	.	.	.	.
.	.	.	.	.	.	.	.	.	.	.	.	.	.	.	.	.	.	.	.	24b-'\J	.	24en/	.	.	.	.
.	.	.	.	8r	.	.	.	.	.	.	.	.	.	.	.	.	.	.	.	[8b-\J	.	24G/	.	.	.	.
.	.	.	.	.	.	.	.	.	.	.	.	.	.	.	.	.	.	.	.	.	.	24d-/	.	.	.	.
.	.	.	.	.	.	.	.	.	.	.	.	.	.	.	.	.	.	.	.	.	.	24e/JJ	.	.	.	.
.	.	.	.	8G\	.	.	.	.	.	.	.	.	.	.	.	.	.	.	.	24b-\LL]	.	24G/LL	.	.	.	.
.	.	.	.	.	.	.	.	.	.	.	.	.	.	.	.	.	.	.	.	24dd-'\	.	24B-/	.	.	.	.
.	.	.	.	.	.	.	.	.	.	.	.	.	.	.	.	.	.	.	.	24cc'\	.	24d-/	.	.	.	.
.	.	.	.	8r	.	.	.	.	.	.	.	.	.	.	.	.	.	.	.	24b-'\	.	24G/	.	.	.	.
.	.	.	.	.	.	.	.	.	.	.	.	.	.	.	.	.	.	.	.	24a-'\	.	24B-/	.	.	.	.
.	.	.	.	.	.	.	.	.	.	.	.	.	.	.	.	.	.	.	.	24g'\JJ	.	24d-/JJ	.	.	.	.
.	.	.	.	8G\	.	.	4cc\	.	.	.	.	.	.	.	.	.	.	.	.	(24f/LL	.	24G/LL	.	.	.	.
.	.	.	.	.	.	.	.	.	.	.	.	.	.	.	.	.	.	.	.	24en/)	.	24B-/	.	.	.	.
.	.	.	.	.	.	.	.	.	.	.	.	.	.	.	.	.	.	.	.	24e'/	.	24c/	.	.	.	.
.	.	.	.	8r	.	.	.	.	.	.	.	.	.	.	.	.	.	.	.	24e'/	.	24G/	.	.	.	.
.	.	.	.	.	.	.	.	.	.	.	.	.	.	.	.	.	.	.	.	24e'/	.	24B-/	.	.	.	.
.	.	.	.	.	.	.	.	.	.	.	.	.	.	.	.	.	.	.	.	24e'/JJ	.	24c/JJ	.	.	.	.
=42	=42	=42	=42	=42	=42	=42	=42	=42	=42	=42	=42	=42	=42	=42	=42	=42	=42	=42	=42	=42	=42	=42	=42	=42	=42	=42
!	!	!	!	!	!	!	!	!	!	!	!	!	!	!	!	!	!	!	!	!	!	! In Pleyel, the 3rd, 6th, 9th, & 12th notes of m. 42 are Db4s not C4s.	!	!	!	!
8bb-\	.	8G\	.	8G\	.	8ee/	8b-\	.	8e\	8B-\	.	4r	2ryy	.	8ee/	8G/	.	4r	.	(24b-/LL	.	24G/LL	.	8e/	8c\	.
.	.	.	.	.	.	.	.	.	.	.	.	.	.	.	.	.	.	.	.	24e/)	.	24B-/	.	.	.	.
.	.	.	.	.	.	.	.	.	.	.	.	.	.	.	.	.	.	.	.	24e'/	.	24cn/	.	.	.	.
8r	.	8r	.	8r	.	8r	8ryy	.	8r	8r	.	.	.	.	8r	8r	.	.	.	24e'/	.	24G/	.	8r	8ryy	.
.	.	.	.	.	.	.	.	.	.	.	.	.	.	.	.	.	.	.	.	24e'/	.	24B-/	.	.	.	.
.	.	.	.	.	.	.	.	.	.	.	.	.	.	.	.	.	.	.	.	24e'/JJ	.	24c/JJ	.	.	.	.
8bb-\	.	8G\	.	8G\	.	8ee/	8b-\	.	8e\	8B-\	.	4r	.	.	4r	4r	.	4r	.	(24dd-/LL	.	24G/LL	.	8e/	8c\	.
.	.	.	.	.	.	.	.	.	.	.	.	.	.	.	.	.	.	.	.	24e/)	.	24B-/	.	.	.	.
.	.	.	.	.	.	.	.	.	.	.	.	.	.	.	.	.	.	.	.	24e'/	.	24c/	.	.	.	.
8r	.	8r	.	8r	.	8r	8ryy	.	8r	8r	.	.	.	.	.	.	.	.	.	24e'/	.	24G/	.	32ryy	8r	.
.	.	.	.	.	.	.	.	.	.	.	.	.	.	.	.	.	.	.	.	.	.	.	.	32ryy	.	.
.	.	.	.	.	.	.	.	.	.	.	.	.	.	.	.	.	.	.	.	24e'/	.	24B-/	.	32ryy	.	.
.	.	.	.	.	.	.	.	.	.	.	.	.	.	.	.	.	.	.	.	24e'/JJ	.	24c/JJ	.	32ryy	.	.
(24ddd-\LL	f	24En\LL	f	24En\LL	f	24bb-/LL	24gg\LL	f	24g\LL	24B-\LL	f	24dd\LL	24g\LL	f	24g/LL	24c/LL	f	24C/LL	f	(24ddd-\LL	f	24G/LL	f	32ryy	24e\LL	f
.	.	.	.	.	.	.	.	.	.	.	.	.	.	.	.	.	.	.	.	.	.	.	.	32ryy	.	.
24ccc\)	.	24E\	.	24E\	.	24bb-/	24gg\	.	24g\	24B-\	.	24dd\	24g\	.	24cc/	24c/	.	24C/	.	24ccc\)	.	24b-/ 24g/	.	32ryy	24cc\	.
24ccc\	.	24E\	.	24E\	.	24bb-/	24gg\	.	24g\	24B-\	.	24dd\	24g\	.	24cc/	24c/	.	24C/	.	24ccc\	.	24b-/ 24g/	.	32ryy	24cc\	.
24ccc\	.	24E\	.	24E\	.	24bb-/	24gg\	.	24g\	24B-\	.	24dd\	24g\	.	24cc/	24c/	.	24C/	.	24ccc\	.	24b-/ 24g/	.	32ryy	24cc\	.
.	.	.	.	.	.	.	.	.	.	.	.	.	.	.	.	.	.	.	.	.	.	.	.	32ryy	.	.
24ccc\	.	24E\	.	24E\	.	24bb-/	24gg\	.	24g\	24B-\	.	24dd\	24g\	.	24cc/	24c/	.	24C/	.	24ccc\	.	24b-/ 24g/	.	32ryy	24cc\	.
24ccc\JJ	.	24E\JJ	.	24E\JJ	.	24bb-/JJ	24gg\JJ	.	24g\JJ	24B-\JJ	.	24dd\JJ	24g\JJ	.	24cc/JJ	24c/JJ	.	24C/JJ	.	24ccc\JJ	.	24b-/ 24g/JJ	.	32ryy	24cc\JJ	.
=43	=43	=43	=43	=43	=43	=43	=43	=43	=43	=43	=43	=43	=43	=43	=43	=43	=43	=43	=43	=43	=43	=43	=43	=43	=43	=43
*	*	*	*	*	*	*	*	*	*	*	*	*	*	*	*	*	*	*	*	*	*	*	*	*v	*v	*
8ccc\	.	8E\	.	8E\	.	8bb-/	8gg\	.	8g\	8B-\	.	8dd\	8g\	.	8cc/	8c/	.	8C/	.	8ccc\	.	8b-/ 8g/	.	8cc\	.
8r	.	8r	.	8r	.	8r	8ryy	.	8r	8r	.	8r	8r	.	8r	8r	.	8r	.	8r	.	8r	.	8r	.
4r	.	24e\LL	p	4r	.	4r	4ryy	.	4r	4r	.	4r	4r	.	4r	4r	.	4r	.	(24dd-\LL	p	24b-\LL	p	24g\LL	p
.	.	24e\	.	.	.	.	.	.	.	.	.	.	.	.	.	.	.	.	.	24cc\)	.	24b-\	.	24g\	.
.	.	24e\	.	.	.	.	.	.	.	.	.	.	.	.	.	.	.	.	.	24cc\	.	24b-\	.	24g\	.
.	.	24e\	.	.	.	.	.	.	.	.	.	.	.	.	.	.	.	.	.	24cc\	.	24b-\	.	24g\	.
.	.	24e\	.	.	.	.	.	.	.	.	.	.	.	.	.	.	.	.	.	24cc\	.	24b-\	.	24g\	.
.	.	24e\JJ	.	.	.	.	.	.	.	.	.	.	.	.	.	.	.	.	.	24cc\JJ	.	24b-\JJ	.	24g\JJ	.
4r	.	8e\	.	4r	.	4r	4ryy	.	4r	4r	.	4r	4r	.	4r	4r	.	4r	.	8cc\	.	8b-\	.	8g\	.
.	.	8r	.	.	.	.	.	.	.	.	.	.	.	.	.	.	.	.	.	8r	.	8r	.	8r	.
=44	=44	=44	=44	=44	=44	=44	=44	=44	=44	=44	=44	=44	=44	=44	=44	=44	=44	=44	=44	=44	=44	=44	=44	=44	=44
2.r	.	8r	.	2.r	.	2.r	2.r	.	2.r	2.r	.	2.r	2.r	.	2.r	2.r	.	2.r	.	(24d-/LL	pp	8r	.	4r	.
.	.	.	.	.	.	.	.	.	.	.	.	.	.	.	.	.	.	.	.	24c/)	.	.	.	.	.
.	.	.	.	.	.	.	.	.	.	.	.	.	.	.	.	.	.	.	.	24c/	.	.	.	.	.
.	.	24c\LL	pp	.	.	.	.	.	.	.	.	.	.	.	.	.	.	.	.	24c/	.	24c/LL	pp	.	.
.	.	24c\	.	.	.	.	.	.	.	.	.	.	.	.	.	.	.	.	.	24c/	.	24c/	.	.	.
.	.	24c\JJ	.	.	.	.	.	.	.	.	.	.	.	.	.	.	.	.	.	24c/JJ	.	24c/JJ	.	.	.
.	.	24B-\LL	.	.	.	.	.	.	.	.	.	.	.	.	.	.	.	.	.	24d-/LL	.	24c/LL	.	8r	.
.	.	24B-\	.	.	.	.	.	.	.	.	.	.	.	.	.	.	.	.	.	24d-/	.	24c/	.	.	.
.	.	24B-\	.	.	.	.	.	.	.	.	.	.	.	.	.	.	.	.	.	24d-/	.	24c/	.	.	.
.	.	24An\	.	.	.	.	.	.	.	.	.	.	.	.	.	.	.	.	.	24dn/	.	24c/	.	24c\LL	pp
.	.	24A\	.	.	.	.	.	.	.	.	.	.	.	.	.	.	.	.	.	24d/	.	24c/	.	24c\	.
.	.	24A\JJ	.	.	.	.	.	.	.	.	.	.	.	.	.	.	.	.	.	24d/JJ	.	24c/JJ	.	24c\JJ	.
.	.	24A-\LL	.	.	.	.	.	.	.	.	.	.	.	.	.	.	.	.	.	24e-/LL	.	24c/LL	.	24c\LL	.
.	.	24A-\	.	.	.	.	.	.	.	.	.	.	.	.	.	.	.	.	.	24e-/	.	24c/	.	24c\	.
.	.	24A-\	.	.	.	.	.	.	.	.	.	.	.	.	.	.	.	.	.	24e-/	.	24c/	.	24c\	.
.	.	24G\	.	.	.	.	.	.	.	.	.	.	.	.	.	.	.	.	.	24en/	.	24B-/	.	24c\	.
.	.	24G\	.	.	.	.	.	.	.	.	.	.	.	.	.	.	.	.	.	24e/	.	24B-/	.	24c\	.
.	.	24G\JJ	.	.	.	.	.	.	.	.	.	.	.	.	.	.	.	.	.	24e/JJ	.	24B-/JJ	.	24c\JJ	.
=45	=45	=45	=45	=45	=45	=45	=45	=45	=45	=45	=45	=45	=45	=45	=45	=45	=45	=45	=45	=45	=45	=45	=45	=45	=45
8ff\L	p	24F\LL	p	2F\	p	2ff/	2a\	p	(4f/	2A\	p	2cc/	2e\	p	2cc/	2c\	p	4FF/	p	8f/L	p	2A/	p	2c\	p
.	.	24An\	.	.	.	.	.	.	.	.	.	.	.	.	.	.	.	.	.	.	.	.	.	.	.
.	.	24c\	.	.	.	.	.	.	.	.	.	.	.	.	.	.	.	.	.	.	.	.	.	.	.
! (32ggP/LLL	!	!	!	!	!	!	!	!	!	!	!	!	!	!	!	!	!	!	!	! (32gP/LLL	!	!	!	!	!
! 32ffP/	!	!	!	!	!	!	!	!	!	!	!	!	!	!	!	!	!	!	!	! 32fP/	!	!	!	!	!
! 32eeP/JJJ	!	!	!	!	!	!	!	!	!	!	!	!	!	!	!	!	!	!	!	! 32eP/JJJ	!	!	!	!	!
16.ffp\L)	.	24F\	.	.	.	.	.	.	.	.	.	.	.	.	.	.	.	.	.	16.fp/L)	.	.	.	.	.
.	.	24A\	.	.	.	.	.	.	.	.	.	.	.	.	.	.	.	.	.	.	.	.	.	.	.
32aa\JJk	.	24c\JJ	.	.	.	.	.	.	.	.	.	.	.	.	.	.	.	.	.	32an/JJk	.	.	.	.	.
(8..ccc\L	.	24F\LL	.	.	.	.	.	.	4c/)	.	.	.	.	.	.	.	.	4r	.	(8..cc\L	.	.	.	.	.
.	.	24A\	.	.	.	.	.	.	.	.	.	.	.	.	.	.	.	.	.	.	.	.	.	.	.
.	.	24c\	.	.	.	.	.	.	.	.	.	.	.	.	.	.	.	.	.	.	.	.	.	.	.
.	.	24F\	.	.	.	.	.	.	.	.	.	.	.	.	.	.	.	.	.	.	.	.	.	.	.
.	.	24A\	.	.	.	.	.	.	.	.	.	.	.	.	.	.	.	.	.	.	.	.	.	.	.
32aa\Jkk)	.	24c\JJ	.	.	.	.	.	.	.	.	.	.	.	.	.	.	.	.	.	32a\Jkk)	.	.	.	.	.
(8..dddz\L	z	24Fz\LL	z	4Fz\	z	4bnz/	4a-\	z	4Bnz/	4A-\	z	4ccz/	4c\	z	4ddz/	4r	z	4FFz/	z	(8..ddz\L	z	4A-z/	z	(8..Bnz\L	z
.	.	24A-\	.	.	.	.	.	.	.	.	.	.	.	.	.	.	.	.	.	.	.	.	.	.	.
.	.	24Bn\	.	.	.	.	.	.	.	.	.	.	.	.	.	.	.	.	.	.	.	.	.	.	.
.	.	24F\	.	.	.	.	.	.	.	.	.	.	.	.	.	.	.	.	.	.	.	.	.	.	.
.	.	24A-\	.	.	.	.	.	.	.	.	.	.	.	.	.	.	.	.	.	.	.	.	.	.	.
32bbn\Jkk)	.	24B\JJ	.	.	.	.	.	.	.	.	.	.	.	.	.	.	.	.	.	32bn\Jkk)	.	.	.	32d\Jkk)	.
=46	=46	=46	=46	=46	=46	=46	=46	=46	=46	=46	=46	=46	=46	=46	=46	=46	=46	=46	=46	=46	=46	=46	=46	=46	=46
(24ccc\LL	p	[4En\	p	(2E\	p	[2cc/	4g\	p	4c/	2G\	p	(2dd/	(2g\	p	2.cc/	2.c\	p	4C/	p	(24cc\LL	p	(8..G/L	p	4c\	p
! 32dddP/LLL	!	!	!	!	!	!	!	!	!	!	!	!	!	!	!	!	!	!	!	! 32ddP/LLL	!	!	!	!	!
! 32cccP/	!	!	!	!	!	!	!	!	!	!	!	!	!	!	!	!	!	!	!	! 32ccP/	!	!	!	!	!
! 32bbP/JJJ	!	!	!	!	!	!	!	!	!	!	!	!	!	!	!	!	!	!	!	! 32bP/JJJ	!	!	!	!	!
24cccp\	.	.	.	.	.	.	.	.	.	.	.	.	.	.	.	.	.	.	.	24ccp\	.	.	.	.	.
24eee\)	.	.	.	.	.	.	.	.	.	.	.	.	.	.	.	.	.	.	.	24ee\)	.	.	.	.	.
(24ggg\	.	.	.	.	.	.	.	.	.	.	.	.	.	.	.	.	.	.	.	(24gg\	.	.	.	.	.
24eee\	.	.	.	.	.	.	.	.	.	.	.	.	.	.	.	.	.	.	.	24ee\	.	.	.	.	.
24ccc\JJ)	.	.	.	.	.	.	.	.	.	.	.	.	.	.	.	.	.	.	.	24cc\JJ)	.	32c/Jkk)	.	.	.
(4bb-\	.	(24E\LL]	.	.	.	.	(4b-\	.	(4B-/	.	.	.	.	.	.	.	.	4r	.	(4b-\	.	2c/	.	(4G/	.
.	.	24G\	.	.	.	.	.	.	.	.	.	.	.	.	.	.	.	.	.	.	.	.	.	.	.
.	.	24B-\)	.	.	.	.	.	.	.	.	.	.	.	.	.	.	.	.	.	.	.	.	.	.	.
.	.	(24d\	.	.	.	.	.	.	.	.	.	.	.	.	.	.	.	.	.	.	.	.	.	.	.
.	.	24B-\	.	.	.	.	.	.	.	.	.	.	.	.	.	.	.	.	.	.	.	.	.	.	.
.	.	24G\JJ)	.	.	.	.	.	.	.	.	.	.	.	.	.	.	.	.	.	.	.	.	.	.	.
4aa\)	.	(24F\LL	.	4F\)	.	8..cc/L]	4an\)	.	4An/)	4F\	.	4ee/)	4cc\)	.	.	.	.	4r	.	4a/)	.	.	.	4A/)	.
.	.	24An\	.	.	.	.	.	.	.	.	.	.	.	.	.	.	.	.	.	.	.	.	.	.	.
.	.	24d\)	.	.	.	.	.	.	.	.	.	.	.	.	.	.	.	.	.	.	.	.	.	.	.
.	.	(24c\	.	.	.	.	.	.	.	.	.	.	.	.	.	.	.	.	.	.	.	.	.	.	.
.	.	24A\	.	.	.	.	.	.	.	.	.	.	.	.	.	.	.	.	.	.	.	.	.	.	.
.	.	24F\JJ)	.	.	.	32cc#/Jkk	.	.	.	.	.	.	.	.	.	.	.	.	.	.	.	.	.	.	.
=47	=47	=47	=47	=47	=47	=47	=47	=47	=47	=47	=47	=47	=47	=47	=47	=47	=47	=47	=47	=47	=47	=47	=47	=47	=47
(24gg\LL	.	4B-\	.	4BB-/	.	(8..dd/L	(8..g\L	.	4d/	4B-\	.	4r	4ryy	.	4r	4ryy	.	4r	.	(24g\LL	.	4d/	.	4d\	.
! 32aaP/LLL	!	!	!	!	!	!	!	!	!	!	!	!	!	!	!	!	!	!	!	! 32aP/LLL	!	!	!	!	!
! 32ggP/	!	!	!	!	!	!	!	!	!	!	!	!	!	!	!	!	!	!	!	! 32gP/	!	!	!	!	!
! 32ff#P/JJJ	!	!	!	!	!	!	!	!	!	!	!	!	!	!	!	!	!	!	!	! 32f#P/JJJ	!	!	!	!	!
24ggp\	.	.	.	.	.	.	.	.	.	.	.	.	.	.	.	.	.	.	.	24gp\	.	.	.	.	.
24eee-\)	.	.	.	.	.	.	.	.	.	.	.	.	.	.	.	.	.	.	.	24ee-\)	.	.	.	.	.
(24ddd\	.	.	.	.	.	.	.	.	.	.	.	.	.	.	.	.	.	.	.	(24dd\	.	.	.	.	.
24bb-\	.	.	.	.	.	.	.	.	.	.	.	.	.	.	.	.	.	.	.	24b-\	.	.	.	.	.
24gg\JJ)	.	.	.	.	.	32gg/Jkk])	32b-\Jkk)	.	.	.	.	.	.	.	.	.	.	.	.	24g\JJ)	.	.	.	.	.
(24ff\LL	.	4c\	.	4C/	.	(4ff/	(4a\	.	(4c/	(4c\	.	(4cc/	(4e\	.	4cc/	4c\	.	4C/	.	(24f/LL	.	(4An/	.	(4c\	.
24cc\	.	.	.	.	.	.	.	.	.	.	.	.	.	.	.	.	.	.	.	24c/	.	.	.	.	.
24ff\J)	.	.	.	.	.	.	.	.	.	.	.	.	.	.	.	.	.	.	.	24f/J)	.	.	.	.	.
[8ccc\J	.	.	.	.	.	.	.	.	.	.	.	.	.	.	.	.	.	.	.	[8cc/J	.	.	.	.	.
(24ccc\LL]	.	4C/	.	4C/	.	4ee/)	4g\)	.	4e/)	4B-\)	.	4dd/)	4g\)	.	4cc/	4c\	.	24C/LL	.	(24cc/LL]	.	4B-/)	.	4E/)	.
24bb-\	.	.	.	.	.	.	.	.	.	.	.	.	.	.	.	.	.	24C/	.	24b-/	.	.	.	.	.
24ddd\)	.	.	.	.	.	.	.	.	.	.	.	.	.	.	.	.	.	24C/	.	24dd/)	.	.	.	.	.
(24bb-\	.	.	.	.	.	.	.	.	.	.	.	.	.	.	.	.	.	24C/	.	(24b-/	.	.	.	.	.
24gg\	.	.	.	.	.	.	.	.	.	.	.	.	.	.	.	.	.	24C/	.	24g/	.	.	.	.	.
24een\JJ)	.	.	.	.	.	.	.	.	.	.	.	.	.	.	.	.	.	24C/JJ	.	24en/JJ)	.	.	.	.	.
=48	=48	=48	=48	=48	=48	=48	=48	=48	=48	=48	=48	=48	=48	=48	=48	=48	=48	=48	=48	=48	=48	=48	=48	=48	=48
(4gg\	.	4FF/	.	4.FF/	.	(4ee/	(4b-\	.	(4e/	(4B-\	.	(4dd/	(4g\	.	4cc/	4c\	.	4FF/	.	(4g/	.	(4B-/	.	(4E/	.
8ff\)	.	8r	.	.	.	8ff/)	8a\)	.	8f/)	8A\)	.	8ee/)	8cc\)	.	4r	4ryy	.	8r	.	8f/)	.	8A/)	.	8F/)	.
8r	.	24A\LL	.	(8FF/L	.	(4ff/	(8a\L	.	(8A/L	(8A\L	.	8r	8ryy	.	.	.	.	8FF/L	.	8r	.	(8f'/L	.	(8f'\L	.
.	.	24F\	.	.	.	.	.	.	.	.	.	.	.	.	.	.	.	.	.	.	.	.	.	.	.
.	.	24A\JJ	.	.	.	.	.	.	.	.	.	.	.	.	.	.	.	.	.	.	.	.	.	.	.
4r	.	24B-\LL	.	8GG/	.	.	8b-\	.	8B-/	8B-\	.	4r	4ryy	.	4r	4ryy	.	8FF/	.	4r	.	8f'/	.	8f'\	.
.	.	24F\	.	.	.	.	.	.	.	.	.	.	.	.	.	.	.	.	.	.	.	.	.	.	.
.	.	24B-\	.	.	.	.	.	.	.	.	.	.	.	.	.	.	.	.	.	.	.	.	.	.	.
.	.	24c\	.	8AA/J)	.	8ee-/)	8cc\J)	.	8c/J)	8c\J)	.	.	.	.	.	.	.	8FF/J	.	.	.	8f'/J)	.	8f'\J)	.
.	.	24F\	.	.	.	.	.	.	.	.	.	.	.	.	.	.	.	.	.	.	.	.	.	.	.
.	.	24c\JJ	.	.	.	.	.	.	.	.	.	.	.	.	.	.	.	.	.	.	.	.	.	.	.
=49	=49	=49	=49	=49	=49	=49	=49	=49	=49	=49	=49	=49	=49	=49	=49	=49	=49	=49	=49	=49	=49	=49	=49	=49	=49
2ddd\	<	24d\LL	<	2BB-/	<	2dd/	2f\	<	2d/	2d\	<	2cc/	2cc\	<	2.r	2.r	.	4FF/	.	2dd\	<	2f/	<	2B-/	<
.	.	24B-\	.	.	.	.	.	.	.	.	.	.	.	.	.	.	.	.	.	.	.	.	.	.	.
.	.	24F\	.	.	.	.	.	.	.	.	.	.	.	.	.	.	.	.	.	.	.	.	.	.	.
.	.	24d\	.	.	.	.	.	.	.	.	.	.	.	.	.	.	.	.	.	.	.	.	.	.	.
.	.	24B-\	.	.	.	.	.	.	.	.	.	.	.	.	.	.	.	.	.	.	.	.	.	.	.
.	.	24F\JJ	.	.	.	.	.	.	.	.	.	.	.	.	.	.	.	.	.	.	.	.	.	.	.
.	.	24d\LL	.	.	.	.	.	.	.	.	.	.	.	.	.	.	.	4r	.	.	.	.	.	.	.
.	.	24B-\	.	.	.	.	.	.	.	.	.	.	.	.	.	.	.	.	.	.	.	.	.	.	.
.	.	24F\	.	.	.	.	.	.	.	.	.	.	.	.	.	.	.	.	.	.	.	.	.	.	.
.	.	24d\	.	.	.	.	.	.	.	.	.	.	.	.	.	.	.	.	.	.	.	.	.	.	.
.	.	24B-\	.	.	.	.	.	.	.	.	.	.	.	.	.	.	.	.	.	.	.	.	.	.	.
.	.	24F\JJ	.	.	.	.	.	.	.	.	.	.	.	.	.	.	.	.	.	.	.	.	.	.	.
(8..eee-\L	.	24e-\LL	.	4AA/	.	(8..ee-/L	(8..f#\L	.	4c/	4c\	]	4g/	4g\	]	.	.	.	4r	.	(8..ee-\L	.	(8..f#/L	.	4c\	.
.	.	24c\	.	.	.	.	.	.	.	.	.	.	.	.	.	.	.	.	.	.	.	.	.	.	.
.	.	24F#\	.	.	.	.	.	.	.	.	.	.	.	.	.	.	.	.	.	.	.	.	.	.	.
.	.	24e-\	.	.	.	.	.	.	.	.	.	.	.	.	.	.	.	.	.	.	.	.	.	.	.
.	.	24c\	.	.	.	.	.	.	.	.	.	.	.	.	.	.	.	.	.	.	.	.	.	.	.
32eeen\Jkk)	]	24F#\JJ	]	.	.	32een/Jkk)	32cc\Jkk)	]	.	.	.	.	.	.	.	.	.	.	.	32een\Jkk)	]	32c/Jkk)	]	.	.
=50	=50	=50	=50	=50	=50	=50	=50	=50	=50	=50	=50	=50	=50	=50	=50	=50	=50	=50	=50	=50	=50	=50	=50	=50	=50
(4fff\	>sf	24d\LL	>sf	(4AA-/	]>sf	2ff/	2bn\	>sf	2d/	2d\	>sf	(4cc/	(4cc\	>sf	2.r	2.r	.	2.r	.	(4ff\	>sf	4Bn/	>sf	2d\	]>sf
.	.	24Bn\	.	.	.	.	.	.	.	.	.	.	.	.	.	.	.	.	.	.	.	.	.	.	.
.	.	24Fn\	.	.	.	.	.	.	.	.	.	.	.	.	.	.	.	.	.	.	.	.	.	.	.
.	.	24d\	.	.	.	.	.	.	.	.	.	.	.	.	.	.	.	.	.	.	.	.	.	.	.
.	.	24Bn\	.	.	.	.	.	.	.	.	.	.	.	.	.	.	.	.	.	.	.	.	.	.	.
.	.	24Fn\JJ	.	.	.	.	.	.	.	.	.	.	.	.	.	.	.	.	.	.	.	.	.	.	.
4bbn\)	.	24d\LL	.	4GG/)	.	.	.	.	.	.	.	4dd/)	4dd\)	.	.	.	.	.	.	4bn\)	.	4fn/	.	.	.
.	.	24Bn\	.	.	.	.	.	.	.	.	.	.	.	.	.	.	.	.	.	.	.	.	.	.	.
.	.	24Fn\	]p	.	.	.	.	.	.	.	.	.	.	.	.	.	.	.	.	.	.	.	.	.	.
.	.	24d\	.	.	.	.	.	.	.	.	.	.	.	.	.	.	.	.	.	.	.	.	.	.	.
.	.	24Bn\	.	.	.	.	.	.	.	.	.	.	.	.	.	.	.	.	.	.	.	.	.	.	.
.	.	24Fn\JJ	.	.	.	.	.	.	.	.	.	.	.	.	.	.	.	.	.	.	.	.	.	.	.
4ccc\	]p	24c\LL	.	4C/	]p	4ee/	4cc\	]p	[4G/	[4G\	]p	4dd/	4dd\	]p	.	.	.	.	.	4cc\	]p	4e/	]p	[4G/	]p
.	.	24G\	.	.	.	.	.	.	.	.	.	.	.	.	.	.	.	.	.	.	.	.	.	.	.
.	.	24En\	.	.	.	.	.	.	.	.	.	.	.	.	.	.	.	.	.	.	.	.	.	.	.
.	.	24c\	.	.	.	.	.	.	.	.	.	.	.	.	.	.	.	.	.	.	.	.	.	.	.
.	.	24G\	.	.	.	.	.	.	.	.	.	.	.	.	.	.	.	.	.	.	.	.	.	.	.
.	.	24E\JJ	.	.	.	.	.	.	.	.	.	.	.	.	.	.	.	.	.	.	.	.	.	.	.
=51	=51	=51	=51	=51	=51	=51	=51	=51	=51	=51	=51	=51	=51	=51	=51	=51	=51	=51	=51	=51	=51	=51	=51	=51	=51
(4ggg\	.	24c\LL	.	4EE/	.	(2b-/	2.cc\	.	(4G/]	(4G\]	.	(2dd/	(2g\	.	2.cc/	2.c/	p	24C/LL	p	(4gg\	.	(4c/	.	4G/]	.
.	.	24B-\	.	.	.	.	.	.	.	.	.	.	.	.	.	.	.	24C/	.	.	.	.	.	.	.
.	.	24G\	.	.	.	.	.	.	.	.	.	.	.	.	.	.	.	24C/	.	.	.	.	.	.	.
.	.	24c\	.	.	.	.	.	.	.	.	.	.	.	.	.	.	.	24C/	.	.	.	.	.	.	.
.	.	24B-\	.	.	.	.	.	.	.	.	.	.	.	.	.	.	.	24C/	.	.	.	.	.	.	.
.	.	24G\JJ	.	.	.	.	.	.	.	.	.	.	.	.	.	.	.	24C/JJ	.	.	.	.	.	.	.
4bb-\	.	24c\LL	.	(4E\	.	.	.	.	4e/	4e\	.	.	.	.	.	.	.	24C/LL	.	4b-\	.	4g/	.	4c\	.
.	.	24B-\	.	.	.	.	.	.	.	.	.	.	.	.	.	.	.	24C/	.	.	.	.	.	.	.
.	.	24G\	.	.	.	.	.	.	.	.	.	.	.	.	.	.	.	24C/	.	.	.	.	.	.	.
.	.	24c\	.	.	.	.	.	.	.	.	.	.	.	.	.	.	.	24C/	.	.	.	.	.	.	.
.	.	24B-\	.	.	.	.	.	.	.	.	.	.	.	.	.	.	.	24C/	.	.	.	.	.	.	.
.	.	24G\JJ	.	.	.	.	.	.	.	.	.	.	.	.	.	.	.	24C/JJ	.	.	.	.	.	.	.
4aa\)	.	24c\LL	.	4F\)	.	4a/)	.	.	4f/)	4f\)	.	4ee/)	4cc\)	.	.	.	.	8FF/	.	4a/)	.	4f/)	.	4c\	.
.	.	24A\	.	.	.	.	.	.	.	.	.	.	.	.	.	.	.	.	.	.	.	.	.	.	.
.	.	24F\	.	.	.	.	.	.	.	.	.	.	.	.	.	.	.	.	.	.	.	.	.	.	.
.	.	24c\	.	.	.	.	.	.	.	.	.	.	.	.	.	.	.	8r	.	.	.	.	.	.	.
.	.	24A\	.	.	.	.	.	.	.	.	.	.	.	.	.	.	.	.	.	.	.	.	.	.	.
.	.	24F\JJ	.	.	.	.	.	.	.	.	.	.	.	.	.	.	.	.	.	.	.	.	.	.	.
=52	=52	=52	=52	=52	=52	=52	=52	=52	=52	=52	=52	=52	=52	=52	=52	=52	=52	=52	=52	=52	=52	=52	=52	=52	=52
(8.gg\L	.	24d\LL	.	2BB-/	.	2g/	2e\	.	2.c/	2.c\	.	4r	4ryy	.	(4g/	(4e/	.	4r	.	(8.g/L	.	2e/ 2G/	.	2c\	.
.	.	24B-\	.	.	.	.	.	.	.	.	.	.	.	.	.	.	.	.	.	.	.	.	.	.	.
.	.	24G\	.	.	.	.	.	.	.	.	.	.	.	.	.	.	.	.	.	.	.	.	.	.	.
.	.	24E\	.	.	.	.	.	.	.	.	.	.	.	.	.	.	.	.	.	.	.	.	.	.	.
! 32aaP/LLL	!	!	!	!	!	!	!	!	!	!	!	!	!	!	!	!	!	!	!	! 32aP/LLL	!	!	!	!	!
! 32ggP/	!	!	!	!	!	!	!	!	!	!	!	!	!	!	!	!	!	!	!	! 32gP/	!	!	!	!	!
! 32ff#P/JJJ	!	!	!	!	!	!	!	!	!	!	!	!	!	!	!	!	!	!	!	! 32f#P/JJJ	!	!	!	!	!
16ggp\Jk	.	24G\	.	.	.	.	.	.	.	.	.	.	.	.	.	.	.	.	.	16gp/Jk	.	.	.	.	.
.	.	24B-\JJ	.	.	.	.	.	.	.	.	.	.	.	.	.	.	.	.	.	.	.	.	.	.	.
4ddd\)	.	24G\LL	.	.	.	.	.	.	.	.	.	(4dd/	(4g\	.	4cc/)	4c/)	.	4C/	.	4dd\)	.	.	.	.	.
.	.	24E\	.	.	.	.	.	.	.	.	.	.	.	.	.	.	.	.	.	.	.	.	.	.	.
.	.	24G\	.	.	.	.	.	.	.	.	.	.	.	.	.	.	.	.	.	.	.	.	.	.	.
.	.	24B-\	.	.	.	.	.	.	.	.	.	.	.	.	.	.	.	.	.	.	.	.	.	.	.
.	.	24d\	.	.	.	.	.	.	.	.	.	.	.	.	.	.	.	.	.	.	.	.	.	.	.
.	.	24E\JJ	.	.	.	.	.	.	.	.	.	.	.	.	.	.	.	.	.	.	.	.	.	.	.
(8..ccc\L	.	24F\LL	.	4AA/	.	(8..a/L	4f\	.	.	.	.	4ee/)	4cc\)	.	4cc/	4c/	.	4FF/	.	(8..cc\L	.	4f/ 4A/	.	4F/	.
.	.	24A\	.	.	.	.	.	.	.	.	.	.	.	.	.	.	.	.	.	.	.	.	.	.	.
.	.	24c\	.	.	.	.	.	.	.	.	.	.	.	.	.	.	.	.	.	.	.	.	.	.	.
.	.	24f\	.	.	.	.	.	.	.	.	.	.	.	.	.	.	.	.	.	.	.	.	.	.	.
.	.	24c\	.	.	.	.	.	.	.	.	.	.	.	.	.	.	.	.	.	.	.	.	.	.	.
32fffn\Jkk)	.	24A\JJ	.	.	.	32ff/Jkk)	.	.	.	.	.	.	.	.	.	.	.	.	.	32ffn\Jkk)	.	.	.	.	.
=53	=53	=53	=53	=53	=53	=53	=53	=53	=53	=53	=53	=53	=53	=53	=53	=53	=53	=53	=53	=53	=53	=53	=53	=53	=53
(24fff\LL	.	24F\LL	.	4BB-/	.	8..dd/L	8..f\L	.	(4B-/	(4B-\	.	4r	4ryy	.	4r	4r	.	4r	.	(24ff\LL	.	8..d/L	.	4B-/	.
24ddd\)	.	24B-\	.	.	.	.	.	.	.	.	.	.	.	.	.	.	.	.	.	24dd\)	.	.	.	.	.
24bb-'\	.	24d\	.	.	.	.	.	.	.	.	.	.	.	.	.	.	.	.	.	24b-'\	.	.	.	.	.
(24ddd\	.	24G\	.	.	.	.	.	.	.	.	.	.	.	.	.	.	.	.	.	(24dd\	.	.	.	.	.
24bb-\)	.	24B-\	.	.	.	.	.	.	.	.	.	.	.	.	.	.	.	.	.	24b-\)	.	.	.	.	.
24gg'\JJ	.	24d\JJ	.	.	.	32gg/Jkk	32b-\Jkk	.	.	.	.	.	.	.	.	.	.	.	.	24g'\JJ	.	32B-/Jkk	.	.	.
8.ff\L	.	24A\LL	.	4C/	.	(4ff/	4a\	.	4c/)	4c\)	.	(4ee/	(4cc\	.	2cc/	2c/	.	4C/	.	8.f/L	.	(4A/	.	(4c\	.
.	.	24c\	.	.	.	.	.	.	.	.	.	.	.	.	.	.	.	.	.	.	.	.	.	.	.
.	.	24f\	.	.	.	.	.	.	.	.	.	.	.	.	.	.	.	.	.	.	.	.	.	.	.
.	.	24A\	.	.	.	.	.	.	.	.	.	.	.	.	.	.	.	.	.	.	.	.	.	.	.
16gg\Jk	.	24c\	.	.	.	.	.	.	.	.	.	.	.	.	.	.	.	.	.	16g/Jk	.	.	.	.	.
.	.	24f\JJ	.	.	.	.	.	.	.	.	.	.	.	.	.	.	.	.	.	.	.	.	.	.	.
4ggT\	.	24B-\LL	.	4C/	.	4ee/)	(8g\L	.	4C/	4C/	.	4dd/)	4g\)	.	.	.	.	4C/	.	4gT/	.	4B-/)	.	4e\)	.
.	.	24c\	.	.	.	.	.	.	.	.	.	.	.	.	.	.	.	.	.	.	.	.	.	.	.
.	.	24e\	.	.	.	.	.	.	.	.	.	.	.	.	.	.	.	.	.	.	.	.	.	.	.
.	.	24B-\	.	.	.	.	8b-\J)	.	.	.	.	.	.	.	.	.	.	.	.	.	.	.	.	.	.
.	.	24c\	.	.	.	.	.	.	.	.	.	.	.	.	.	.	.	.	.	.	.	.	.	.	.
.	.	24e\JJ	.	.	.	.	.	.	.	.	.	.	.	.	.	.	.	.	.	.	.	.	.	.	.
! (16ffP/LL	!	!	!	!	!	!	!	!	!	!	!	!	!	!	!	!	!	!	!	! (16fP/LL	!	!	!	!	!
! 16ggP/JJ)	!	!	!	!	!	!	!	!	!	!	!	!	!	!	!	!	!	!	!	! 16gP/JJ)	!	!	!	!	!
=54	=54	=54	=54	=54	=54	=54	=54	=54	=54	=54	=54	=54	=54	=54	=54	=54	=54	=54	=54	=54	=54	=54	=54	=54	=54
4ffp\	.	24fn\LL	ff	24D-\LL	ff	4ff/	4a-\	.	24D-/LL	24D-\LL	f	24cc/LL	24c/LL	f	2.r	2.r	.	24FF/LL	f	24fp'\LLxx	ff	24f/LL 24A-/	ff	24f\LL	ff
.	.	24f\	.	24D-\	.	.	.	.	24D-/	24D-\	.	24cc/	24c/	.	.	.	.	24FF/	.	24a-'\	.	24f/ 24A-/	.	24d-\	.
.	.	24f\	.	24D-\	.	.	.	.	24D-/	24D-\	.	24cc/	24c/	.	.	.	.	24FF/	.	24cc'\	.	24f/ 24A-/	.	24d-\	.
.	.	24f\	.	24D-\	.	.	.	.	24D-/	24D-\	.	24cc/	24c/	.	.	.	.	24FF/	.	24dd-'\	.	24f/ 24A-/	.	24d-\	.
.	.	24f\	.	24D-\	.	.	.	.	24D-/	24D-\	.	24cc/	24c/	.	.	.	.	24FF/	.	24ff'\	.	24f/ 24A-/	.	24d-\	.
.	.	24f\JJ	.	24D-\JJ	.	.	.	.	24D-/JJ	24D-\JJ	.	24cc/JJ	24c/JJ	.	.	.	.	24FF/JJ	.	24aa-'\JJ	.	24f/ 24A-/JJ	.	24d-\JJ	.
4r	.	8f\	.	8D-\	.	4r	4ryy	.	8D-/	8D-\	.	8cc/	8c/	.	.	.	.	24FF/LL	.	24ddd-\LL	.	24f/LL	.	8d-\	.
.	.	.	.	.	.	.	.	.	.	.	.	.	.	.	.	.	.	24FF/	.	24aa-\	.	24a-/	.	.	.
.	.	.	.	.	.	.	.	.	.	.	.	.	.	.	.	.	.	24FF/	.	24gg-\	.	24g-/	.	.	.
.	.	24r	.	24r	.	.	.	.	24r	24r	.	8r	8r	.	.	.	.	24FF/	.	24ff\	.	24f/	.	24r	.
.	.	24r	.	24r	.	.	.	.	24r	24r	.	.	.	.	.	.	.	24FF/	.	24ee-\	.	24e-/	.	24r	.
.	.	24d-\)	.	24d-\)	.	.	.	.	24d-/)	24d-\	.	.	.	.	.	.	.	24FF/JJ	.	24dd-\JJ	.	24d-/JJ	.	24dd-\)	.
4r	.	24c\LL	.	24c\LL	.	4r	4ryy	.	24c/LL	24c\LL	.	4r	4r	.	.	.	.	24FF/LL	.	24cc/LL	.	24c/LL	.	24cc\LL	.
.	.	24B-\	.	24B-\	.	.	.	.	24B-/	24B-\	.	.	.	.	.	.	.	24FF/	.	24b-/	.	24B-/	.	24b-\	.
.	.	24A-\	.	24A-\	.	.	.	.	24A-/	24A-\	.	.	.	.	.	.	.	24FF/	.	24a-/	.	24A-/	.	24a-\	.
.	.	24G-\	.	24G-\	.	.	.	.	24G-/	24G-\	.	.	.	.	.	.	.	24FF/	.	24g-/	.	24g-/	.	24g-\	.
.	.	24F\	.	24F\	.	.	.	.	24F/	24F\	.	.	.	.	.	.	.	24FF/	.	24f/	.	24f/	.	24f\	.
.	.	24E-\JJ	.	24E-\JJ	.	.	.	.	24E-/JJ	24E-\JJ	.	.	.	.	.	.	.	24FF/JJ	.	24e-/JJ	.	24e-/JJ	.	24e-\JJ	.
=55	=55	=55	=55	=55	=55	=55	=55	=55	=55	=55	=55	=55	=55	=55	=55	=55	=55	=55	=55	=55	=55	=55	=55	=55	=55
2.aa-\xx	f	24D-\LL	.	24D-\LL	.	2.aa-/xx	[2.ff\	f	4D-/	4D-\	.	2.cc/	2.c/	f	2.r	2.r	.	24FF/LL	.	24d-/LL	.	24d-/LL	.	24d-\LL	.
.	.	24D-\	.	24D-\	.	.	.	.	.	.	.	.	.	.	.	.	.	24FF/	.	24f/	.	24f/	.	24d-\	.
.	.	24D-\	.	24D-\	.	.	.	.	.	.	.	.	.	.	.	.	.	24FF/	.	24a-/	.	24f/	.	24d-\	.
.	.	24D-\	.	24D-\	.	.	.	.	.	.	.	.	.	.	.	.	.	24FF/	.	24a-/	.	24f/	.	24d-\	.
.	.	24D-\	.	24D-\	.	.	.	.	.	.	.	.	.	.	.	.	.	24FF/	.	24a-/	.	24f/	.	24d-\	.
.	.	24D-\JJ	.	24D-\JJ	.	.	.	.	.	.	.	.	.	.	.	.	.	24FF/JJ	.	24a-/JJ	.	24f/JJ	.	24d-\JJ	.
.	.	24C/LL	.	24C/LL	.	.	.	.	4C/	4C\	.	.	.	.	.	.	.	24FF/LL	.	24c/LL	.	24c/LL	.	24c\LL	.
.	.	24C/	.	24C/	.	.	.	.	.	.	.	.	.	.	.	.	.	24FF/	.	24f/	.	24f/	.	24c\	.
.	.	24C/	.	24C/	.	.	.	.	.	.	.	.	.	.	.	.	.	24FF/	.	24a-/	.	24f/	.	24c\	.
.	.	24C/	.	24C/	.	.	.	.	.	.	.	.	.	.	.	.	.	24FF/	.	24a-/	.	24f/	.	24c\	.
.	.	24C/	.	24C/	.	.	.	.	.	.	.	.	.	.	.	.	.	24FF/	.	24a-/	.	24f/	.	24c\	.
.	.	24C/JJ	.	24C/JJ	.	.	.	.	.	.	.	.	.	.	.	.	.	24FF/JJ	.	24a-/JJ	.	24f/JJ	.	24c\JJ	.
.	.	24BBn/LL	.	24BBn/LL	.	.	.	.	4BBn/	4BBn\	.	.	.	.	.	.	.	24FF/LL	.	24Bn/LL	.	24Bn/LL	.	24Bn/LL	.
.	.	24BB/	.	24BB/	.	.	.	.	.	.	.	.	.	.	.	.	.	24FF/	.	24fn/	.	24f/	.	24B/	.
.	.	24BB/	.	24BB/	.	.	.	.	.	.	.	.	.	.	.	.	.	24FF/	.	24a-/	.	24f/	.	24B/	.
.	.	24BB/	.	24BB/	.	.	.	.	.	.	.	.	.	.	.	.	.	24FF/	.	24a-/	.	24f/	.	24B/	.
.	.	24BB/	.	24BB/	.	.	.	.	.	.	.	.	.	.	.	.	.	24FF/	.	24a-/	.	24f/	.	24B/	.
.	.	24BB/JJ	.	24BB/JJ	.	.	.	.	.	.	.	.	.	.	.	.	.	24FF/JJ	.	24a-/JJ	.	24f/JJ	.	24B/JJ	.
=56	=56	=56	=56	=56	=56	=56	=56	=56	=56	=56	=56	=56	=56	=56	=56	=56	=56	=56	=56	=56	=56	=56	=56	=56	=56
4aan\	.	24C/LL	.	24C/LL	.	4aan/	4ff\]	.	4C/	4C\	.	4cc/	4c/	.	2c/	2c\	f	24C/LL	.	24c/LL	.	24c/LL	.	24c\LL	.
.	.	24C/	.	24C/	.	.	.	.	.	.	.	.	.	.	.	.	.	24C/	.	24f/	.	24f/	.	24f\	.
.	.	24C/	.	24C/	.	.	.	.	.	.	.	.	.	.	.	.	.	24C/	.	24an/	.	24an/	.	24f\	.
.	.	24C/	.	24C/	.	.	.	.	.	.	.	.	.	.	.	.	.	24C/	.	24cc/	.	24a/	.	24f\	.
.	.	24C/	.	24C/	.	.	.	.	.	.	.	.	.	.	.	.	.	24C/	.	24cc/	.	24a/	.	24f\	.
.	.	24C/JJ	.	24C/JJ	.	.	.	.	.	.	.	.	.	.	.	.	.	24C/JJ	.	24cc/JJ	.	24a/JJ	.	24f\JJ	.
4r	.	8C'/	.	8C'/	.	4r	4ryy	.	4r	4ryy	.	4r	4r	.	.	.	.	8C/	.	8cc'\	.	8a'/	.	8f'\	.
.	.	8r	.	8r	.	.	.	.	.	.	.	.	.	.	.	.	.	8r	.	8r	.	8r	.	8r	.
8een\	p	8C/	p	8C/	p	4r	4ryy	.	4r	4ryy	.	4r	4r	.	4r	4ryy	.	4r	.	8en/	p	8B-/	p	8G/	p
8r	.	8r	.	8r	.	.	.	.	.	.	.	.	.	.	.	.	.	.	.	8r	.	8r	.	8r	.
=57	=57	=57	=57	=57	=57	=57	=57	=57	=57	=57	=57	=57	=57	=57	=57	=57	=57	=57	=57	=57	=57	=57	=57	=57	=57
*	*	*	*	*	*	*	*	*	*	*	*	*	*	*	*	*	*	*	*	*	*	*	*	*^	*
(24ccc\LL	.	2.FF/	.	4FF/	.	4r	4r	.	4F/	4F\	p	[2.C/	[2.CC/	p	2c/	2c\	p	4FF/	p	(24cc/LL	.	24A/LL	.	2c/	2A\	.
24aa\)	.	.	.	.	.	.	.	.	.	.	.	.	.	.	.	.	.	.	.	24a/)	.	24c/	.	.	.	.
24ff\	.	.	.	.	.	.	.	.	.	.	.	.	.	.	.	.	.	.	.	24f/	.	24f/	.	.	.	.
24ff\	.	.	.	.	.	.	.	.	.	.	.	.	.	.	.	.	.	.	.	24f/	.	24A/	.	.	.	.
24ff\	.	.	.	.	.	.	.	.	.	.	.	.	.	.	.	.	.	.	.	24f/	.	24c/	.	.	.	.
24ff\JJ	.	.	.	.	.	.	.	.	.	.	.	.	.	.	.	.	.	.	.	24f/JJ	.	24f/JJ	.	.	.	.
! (32ggP/LLL	!	!	!	!	!	!	!	!	!	!	!	!	!	!	!	!	!	!	!	! (32gP/LLL	!	!	!	!	!	!
! 32ffP/	!	!	!	!	!	!	!	!	!	!	!	!	!	!	!	!	!	!	!	! 32fP/	!	!	!	!	!	!
! 32eeP/JJJ	!	!	!	!	!	!	!	!	!	!	!	!	!	!	!	!	!	!	!	! 32eP/JJJ	!	!	!	!	!	!
8ffp\)	.	.	.	4r	.	(24aa/LL	4ryy	p	4r	4ryy	.	.	.	.	.	.	.	4r	.	8fp/)	.	24A/LL	.	.	.	.
.	.	.	.	.	.	24ff/)	.	.	.	.	.	.	.	.	.	.	.	.	.	.	.	24c/	.	.	.	.
.	.	.	.	.	.	24cc/	.	.	.	.	.	.	.	.	.	.	.	.	.	.	.	24f/	.	.	.	.
8r	.	.	.	.	.	24cc/	.	.	.	.	.	.	.	.	.	.	.	.	.	8r	.	24A/	.	.	.	.
.	.	.	.	.	.	24cc/	.	.	.	.	.	.	.	.	.	.	.	.	.	.	.	24c/	.	.	.	.
.	.	.	.	.	.	24cc/JJ	.	.	.	.	.	.	.	.	.	.	.	.	.	.	.	24f/JJ	.	.	.	.
24gg\LL	.	.	.	4r	.	(24dd-/LL	(4ee\	p	(4d-/	(4B-\	.	.	.	.	(8e/L	(8e\L	.	24C/LL	.	24g/LL	.	24B-/LL	.	4d-/	4B-\	.
24gg\	.	.	.	.	.	24b-/)	.	.	.	.	.	.	.	.	.	.	.	24C/	.	24g/	.	24d-/	.	.	.	.
24gg\	.	.	.	.	.	24g/	.	.	.	.	.	.	.	.	.	.	.	24C/	.	24g/	.	24en/	.	.	.	.
24gg\	.	.	.	.	.	24e/	.	.	.	.	.	.	.	.	8g/J)	8g\J)	.	24C/	.	24g/	.	24B-/	.	.	.	.
24aa\	.	.	.	.	.	24f/	.	.	.	.	.	.	.	.	.	.	.	24C/	.	24a/	.	24d-/	.	.	.	.
24bb-\JJ	.	.	.	.	.	24g/JJ	.	.	.	.	.	.	.	.	.	.	.	24C/JJ	.	24b-/JJ	.	24e/JJ	.	.	.	.
=58	=58	=58	=58	=58	=58	=58	=58	=58	=58	=58	=58	=58	=58	=58	=58	=58	=58	=58	=58	=58	=58	=58	=58	=58	=58	=58
(24ccc\LL	.	2.FF/	.	4FF/	.	8a/	8ff\)	.	4c/)	4A\)	.	2.C/_	2.CC/_	.	4cc/	4c/	.	4FF/	.	(24cc/LL	.	24A/LL	.	2c/	2A\	.
24aa\)	.	.	.	.	.	.	.	.	.	.	.	.	.	.	.	.	.	.	.	24a/)	.	24c/	.	.	.	.
24ff\	.	.	.	.	.	.	.	.	.	.	.	.	.	.	.	.	.	.	.	24f/	.	24f/	.	.	.	.
24ff\	.	.	.	.	.	8r	8ryy	.	.	.	.	.	.	.	.	.	.	.	.	24f/	.	24A/	.	.	.	.
24ff\	.	.	.	.	.	.	.	.	.	.	.	.	.	.	.	.	.	.	.	24f/	.	24c/	.	.	.	.
24ff\JJ	.	.	.	.	.	.	.	.	.	.	.	.	.	.	.	.	.	.	.	24f/JJ	.	24f/JJ	.	.	.	.
! (32ggP/LLL	!	!	!	!	!	!	!	!	!	!	!	!	!	!	!	!	!	!	!	! (32gP/LLL	!	!	!	!	!	!
! 32ffP/	!	!	!	!	!	!	!	!	!	!	!	!	!	!	!	!	!	!	!	! 32fP/	!	!	!	!	!	!
! 32eeP/JJJ	!	!	!	!	!	!	!	!	!	!	!	!	!	!	!	!	!	!	!	! 32eP/JJJ	!	!	!	!	!	!
8ffp\)	.	.	.	4r	.	(24aa/LL	4r	.	4r	4ryy	.	.	.	.	4r	4r	.	4r	.	8fp/)	.	24A/LL	.	.	.	.
.	.	.	.	.	.	24ff/)	.	.	.	.	.	.	.	.	.	.	.	.	.	.	.	24c/	.	.	.	.
.	.	.	.	.	.	24cc'/	.	.	.	.	.	.	.	.	.	.	.	.	.	.	.	24f/	.	.	.	.
8r	.	.	.	.	.	24cc'/	.	.	.	.	.	.	.	.	.	.	.	.	.	8r	.	24A/	.	.	.	.
.	.	.	.	.	.	24cc'/	.	.	.	.	.	.	.	.	.	.	.	.	.	.	.	24c/	.	.	.	.
.	.	.	.	.	.	24cc'/JJ	.	.	.	.	.	.	.	.	.	.	.	.	.	.	.	24f/JJ	.	.	.	.
!	!	!	!	!	!	!	!	!	! sempre  pi\u8  piano	!	!	!	!	!	! sempre  pi\u8  piano	!	!	!	!	!	!	!	!	! sempre  pi\u8  piano	!	!
24gg\LL	.	.	.	4r	.	(24dd-/LL	4ee\	.	4d-/	4B-\	.	.	.	.	(8e/L	(8e\L	.	24C/LL	.	24g/LL	.	24B-/LL	.	4d-/	4B-\	.
! sempre  pi\u8  piano	!	!	!	!	!	! sempre  pi\u8  piano	!	!	!	!	!	!	!	!	!	!	!	! sempre  pi\u8  piano	!	! sempre  pi\u8  piano	!	! sempre  pi\u8  piano	!	!	!	!
24gg\	.	.	.	.	.	24b-/)	.	.	.	.	.	.	.	.	.	.	.	24C/	.	24g/	.	24d-/	.	.	.	.
24gg\	.	.	.	.	.	24g'/	.	.	.	.	.	.	.	.	.	.	.	24C/	.	24g/	.	24en/	.	.	.	.
24gg\	.	.	.	.	.	24e'/	.	.	.	.	.	.	.	.	8g/J)	8g\J)	.	24C/	.	24g/	.	24B-/	.	.	.	.
24aa\	.	.	.	.	.	24f'/	.	.	.	.	.	.	.	.	.	.	.	24C/	.	24a/	.	24d-/	.	.	.	.
24bb-\JJ	.	.	.	.	.	24g'/JJ	.	.	.	.	.	.	.	.	.	.	.	24C/JJ	.	24b-/JJ	.	24e/JJ	.	.	.	.
!	!	! sempre  pi\u8  piano	!	!	!	!	!	!	!	!	!	!	!	!	!	!	!	!	!	!	!	!	!	!	!	!
=59	=59	=59	=59	=59	=59	=59	=59	=59	=59	=59	=59	=59	=59	=59	=59	=59	=59	=59	=59	=59	=59	=59	=59	=59	=59	=59
!	!	!	!	! sempre pi\u8 piano	!	!	!	!	!	!	!	! sempre pi\u8 piano	!	!	!	!	!	!	!	!	!	!	!	!	!	!
(24ccc\LL	.	8FF/	.	8FF/	.	(4an/	(4ff\	.	[2.c/	[2.A\	.	8C/]	8CC/]	.	[2.cc/	[2.c/	.	24FF/LL	.	(24cc/LL	.	24A/LL	.	8c/	8A\	.
24aa\)	.	.	.	.	.	.	.	.	.	.	.	.	.	.	.	.	.	24FF/	.	24a/)	.	24c/	.	.	.	.
24ff\	.	.	.	.	.	.	.	.	.	.	.	.	.	.	.	.	.	24FF/	.	24f/	.	24f/	.	.	.	.
24ff\	.	8r	.	8r	.	.	.	.	.	.	.	8r	8ryy	.	.	.	.	24FF/	.	24f/	.	24A/	.	2ryy	8r	.
24ff\	.	.	.	.	.	.	.	.	.	.	.	.	.	.	.	.	.	24FF/	.	24f/	.	24c/	.	.	.	.
24ff\JJ	.	.	.	.	.	.	.	.	.	.	.	.	.	.	.	.	.	24FF/JJ	.	24f/JJ	.	24f/JJ	.	.	.	.
(24aa\LL	.	8FF/	.	8FF/	.	4cc/	4aa\	.	.	.	.	4r	4ryy	.	.	.	.	24FF/LL	.	(24a/LL	.	24A/LL	.	.	8A/ 8C/	.
24ff\)	.	.	.	.	.	.	.	.	.	.	.	.	.	.	.	.	.	24FF/	.	24f/)	.	24c/	.	.	.	.
24cc\	.	.	.	.	.	.	.	.	.	.	.	.	.	.	.	.	.	24FF/	.	24c/	.	24f/	.	.	.	.
24cc\	.	8r	.	8r	.	.	.	.	.	.	.	.	.	.	.	.	.	24FF/	.	24c/	.	24A/	.	.	8r	.
24cc\	.	.	.	.	.	.	.	.	.	.	.	.	.	.	.	.	.	24FF/	.	24c/	.	24c/	.	.	.	.
24cc\JJ	.	.	.	.	.	.	.	.	.	.	.	.	.	.	.	.	.	24FF/JJ	.	24c/JJ	.	24f/JJ	.	.	.	.
(24ff\LL	.	8FF/	.	8FF/	.	4ff/)	4ff\)	.	.	.	.	4r	4ryy	.	.	.	.	24FF/LL	.	(24f/LL	.	24A/LL	.	.	8A/ 8C/	.
24cc\)	.	.	.	.	.	.	.	.	.	.	.	.	.	.	.	.	.	24FF/	.	24c/)	.	24c/	.	.	.	.
24a\	.	.	.	.	.	.	.	.	.	.	.	.	.	.	.	.	.	24FF/	.	24A/	.	24f/	.	.	.	.
24a\	.	8r	.	8r	.	.	.	.	.	.	.	.	.	.	.	.	.	24FF/	.	24A/	.	24A/	.	8ryy	8r	.
24a\	.	.	.	.	.	.	.	.	.	.	.	.	.	.	.	.	.	24FF/	.	24A/	.	24c/	.	.	.	.
24a\JJ	.	.	.	.	.	.	.	.	.	.	.	.	.	.	.	.	.	24FF/JJ	.	24A/JJ	.	24f/JJ	.	.	.	.
=60	=60	=60	=60	=60	=60	=60	=60	=60	=60	=60	=60	=60	=60	=60	=60	=60	=60	=60	=60	=60	=60	=60	=60	=60	=60	=60
*	*	*	*	*	*	*	*	*	*	*	*	*	*	*	*	*	*	*	*	*	*	*	*	*v	*v	*
2.fff;\	pp	2.FF;/	pp	2.FF;/	pp	2.aa;/	2.cc\	pp	2.c;/]	2.A\]	pp	2.C;/	2.CC/	pp	2.cc;\]	2.c/]	pp	24FF;/LL	pp	2.A;/	pp	2.c;/	pp	2.A;/ 2.C/	pp
.	.	.	.	.	.	.	.	.	.	.	.	.	.	.	.	.	.	24FF/	.	.	.	.	.	.	.
.	.	.	.	.	.	.	.	.	.	.	.	.	.	.	.	.	.	24FF/	.	.	.	.	.	.	.
.	.	.	.	.	.	.	.	.	.	.	.	.	.	.	.	.	.	24FF/	.	.	.	.	.	.	.
.	.	.	.	.	.	.	.	.	.	.	.	.	.	.	.	.	.	24FF/	.	.	.	.	.	.	.
.	.	.	.	.	.	.	.	.	.	.	.	.	.	.	.	.	.	24FF/	.	.	.	.	.	.	.
.	.	.	.	.	.	.	.	.	.	.	.	.	.	.	.	.	.	24FF/	.	.	.	.	.	.	.
.	.	.	.	.	.	.	.	.	.	.	.	.	.	.	.	.	.	24FF/	.	.	.	.	.	.	.
.	.	.	.	.	.	.	.	.	.	.	.	.	.	.	.	.	.	24FF/	.	.	.	.	.	.	.
.	.	.	.	.	.	.	.	.	.	.	.	.	.	.	.	.	.	24FF/	.	.	.	.	.	.	.
.	.	.	.	.	.	.	.	.	.	.	.	.	.	.	.	.	.	24FF/	.	.	.	.	.	.	.
.	.	.	.	.	.	.	.	.	.	.	.	.	.	.	.	.	.	24FF/	.	.	.	.	.	.	.
.	.	.	.	.	.	.	.	.	.	.	.	.	.	.	.	.	.	24FF/	.	.	.	.	.	.	.
.	.	.	.	.	.	.	.	.	.	.	.	.	.	.	.	.	.	24FF/	.	.	.	.	.	.	.
.	.	.	.	.	.	.	.	.	.	.	.	.	.	.	.	.	.	24FF/	.	.	.	.	.	.	.
.	.	.	.	.	.	.	.	.	.	.	.	.	.	.	.	.	.	24FF/	.	.	.	.	.	.	.
.	.	.	.	.	.	.	.	.	.	.	.	.	.	.	.	.	.	24FF/	.	.	.	.	.	.	.
.	.	.	.	.	.	.	.	.	.	.	.	.	.	.	.	.	.	24FF/JJ	.	.	.	.	.	.	.
==|!	==|!	==|!	==|!	==|!	==|!	==|!	==|!	==|!	==|!	==|!	==|!	==|!	==|!	==|!	==|!	==|!	==|!	==|!	==|!	==|!	==|!	==|!	==|!	==|!	==|!
*-	*-	*-	*-	*-	*-	*-	*-	*-	*-	*-	*-	*-	*-	*-	*-	*-	*-	*-	*-	*-	*-	*-	*-	*-	*-
!!!RWG: Appoggiaturas of spine 'Flauto 1       (Flauto 2 tacet)' need manual editing in measures: 6, 17, 18, 19, 22, 45, 46, 47, 52, 54, 57, 58
!!!RWG: Appoggiaturas of spine 'Violino I' need manual editing in measures: 0, 2, 3, 6, 17, 18, 19, 22, 33, 34, 35, 45, 46, 47, 52, 54, 57, 58
!!!RWG: Key is interpreted using the Humdrum key tool.
!!!AFT: stage2
!!!END: 1996/05/13
!!format changes:
!!content changes:
!!public access: complete
!!!KEY: 2152354262
!!!EMD: Converted from MuseData to Humdrum Dec 16, 2000, by Andreas Kornstaedt using muse2kern.
